!!!!SEGMENT: pl-sa--90-a-ii-30--004_brixi-frantisek-xaver-missa-in-d-sanctus.krn
!!!id: 17xx:599
!!!COM: Brixi, Frantisek Xaver
!!!OTL: Missa in D – Sanctus
!!!PDT:
!!!SMS-siglum: PL-SA
!!!SMS-shelfmark: 90/A II 30
!!!NIFC-rismID: 1001072256
!!!URL-scan: http://bc.bdsandomierz.pl/dlibra/publication/1375/edition/1343/content
!!!ONB-nifc: UWAGA: części Mszy: Kyrie, Gloria, Credo, Sanctus, Agnus Dei
!!!SMS-variant:
!!!SMS-altvar:
**kern	**fba	**dynam	**kern	**kern	**dynam	**kern	**text	**kern	**text	**kern	**text	**kern	**text	**kern	**kern
*part9	*	*part9	*part8	*part7	*part7	*part6	*part6	*part5	*part5	*part4	*part4	*part3	*part3	*part2	*part1
*staff9	*	*	*staff8	*staff7	*	*staff6	*staff6	*staff5	*staff5	*staff4	*staff4	*staff3	*staff3	*staff2	*staff1
*I"Fundamento	*	*	*I"Violino 2do.	*I"Violino 1mo	*	*I"Baſso	*	*I"Tenore	*	*I"Alto	*	*I"Canto	*	*I"Cornu 2do. In D.	*I"Cornu 1mo In D.
*I'b.c.	*	*	*I'vl 2	*I'vl 1	*	*I'B	*	*I'T	*	*I'A	*	*I'S	*	*I'cor 2	*I'cor 1
*group4	*	*	*group3	*group3	*	*group2	*	*group2	*	*group2	*	*group2	*	*group1	*group1
*clefF4	*	*	*clefG2	*clefG2	*	*clefF4	*	*clefC4	*	*clefC3	*	*clefC1	*	*clefG2	*clefG2
*	*	*	*	*	*	*	*	*	*	*	*	*	*	*ITrd-1c-2	*ITrd-1c-2
*k[f#c#]	*	*	*k[f#c#]	*k[f#c#]	*	*k[f#c#]	*	*k[f#c#]	*	*k[f#c#]	*	*k[f#c#]	*	*k[f#c#]	*k[f#c#]
*M4/4	*	*	*M4/4	*M4/4	*	*M4/4	*	*M4/4	*	*M4/4	*	*M4/4	*	*M4/4	*M4/4
*met(c)	*	*	*met(c)	*met(c)	*	*met(c)	*	*met(c)	*	*met(c)	*	*met(c)	*	*met(c)	*met(c)
=1	=1	=1	=1	=1	=1	=1	=1	=1	=1	=1	=1	=1	=1	=1	=1
!	!	!	!LO:TX:a:t=adagio	!LO:TX:a:t=P:problem: f=for.&colon;global	!	!LO:TX:a:t=Adac	!	!LO:TX:a:t=Ada	!	!LO:TX:a:t=Adagio	!	!LO:TX:a:t=Adagio	!	!LO:TX:a:t=Adagio	!
!	!	!	!	!	!	!LO:TX:a:t=P:problem:inny kopista	!	!	!	!	!	!LO:TX:a:t=P:problem:c# oktawę wyżej	!	!LO:TX:a:t=P:problem:metrum C z kropką	!LO:TX:a:t=P:problem:metrum C z kropką
!	!	!	!	!	!	!	!	!LO:TX:a:t=P:problem:metrum C z kropką	!	!LO:TX:a:t=P:problem:metrum C z kropką	!	!LO:TX:a:t=P:problem:metrum C z kropką	!	!	!
4D\	.	.	4d/ 4a 4ff#	4d/ 4a 4ff#	f	4D\	San-	4d\	San-	4a\	San-	4ff#\	San-	4dd\	4ff#\
4D\	.	.	4d/ 4a 4ff#	4ddd\	.	4D\	-ctus	4d\	-ctus	4a\	-ctus	4ff#\	-ctus	4dd\	4ff#\
!	!	!	!	!LO:TX:a:t=P:problem: p=pia&colon;global	!	!	!	!	!	!	!	!	!	!	!
2r	.	.	16g/LL	(16bb\LL	p	2r	.	2r	.	2r	.	2r	.	2r	2r
.	.	.	16f#/	16aa\)	.	.	.	.	.	.	.	.	.	.	.
.	.	.	16f#/	16aa\	.	.	.	.	.	.	.	.	.	.	.
.	.	.	16e/JJ	16gg\JJ	.	.	.	.	.	.	.	.	.	.	.
.	.	.	16e/LL	16gg\LL	.	.	.	.	.	.	.	.	.	.	.
.	.	.	16d/	[16ff#\	.	.	.	.	.	.	.	.	.	.	.
.	.	.	16d/	16ff#\]	.	.	.	.	.	.	.	.	.	.	.
.	.	.	16c#/JJ	16ee\JJ	.	.	.	.	.	.	.	.	.	.	.
=2	=2	=2	=2	=2	=2	=2	=2	=2	=2	=2	=2	=2	=2	=2	=2
8AA/L	.	f	8c#/L	8a/L 8ee	f	8A\	San-	8c#\	San-	8a\	San-	8ee\	San-	8a\L	8ee\L
8D/J	.	.	8d/J	8d/J 8a 8ff#	.	8d\	-ctus	8d\	-ctus	8a\	-ctus	8ff#\	-ctus	8dd\J	8ff#\J
4r	.	.	4d/ 4a 4ff#	4d/ 4a 4ff#	.	4r	.	4r	.	4r	.	4r	.	4dd\	4ff#\
2r	.	.	16g/LL	(16b/LL	p	2r	.	2r	.	2r	.	2r	.	2r	2r
.	.	.	[16f#/	16a/)	.	.	.	.	.	.	.	.	.	.	.
.	.	.	16f#/]	(16a/	.	.	.	.	.	.	.	.	.	.	.
.	.	.	16e/JJ	16g/JJ)	.	.	.	.	.	.	.	.	.	.	.
.	.	.	16e/LL	(16g/LL	.	.	.	.	.	.	.	.	.	.	.
.	.	.	[16d/	16f#/)	.	.	.	.	.	.	.	.	.	.	.
.	.	.	16d/]	(16f#/	.	.	.	.	.	.	.	.	.	.	.
.	.	.	16c#/JJ	16e/JJ)	.	.	.	.	.	.	.	.	.	.	.
=3	=3	=3	=3	=3	=3	=3	=3	=3	=3	=3	=3	=3	=3	=3	=3
!	!	!	!	!	!	!	!	!	!	!	!	!	!	!LO:TX:a:t=P:problem: brak taktu w źródle	!LO:TX:a:t=P:problem: niepotrzebnie powtórzony takt w źródle
8AA/L	.	.	8cc#\L	8c#/L	.	8AA/	San-	8A\	San-	8f#\	San-	8cc#\	San-	1r	8ee\L
8D/J	.	.	8dd\J	8d/J	.	8D/	-ctus	8A\	-ctus	8f#\	-ctus	8dd\	-ctus	.	8ee\J
4r	.	.	4dd\	4d/ 4a 4ff#	.	4r	.	4r	.	4r	.	4r	.	.	4ff#\
!	!	!	!	!LO:TX:a:t=P:problem: mixed beam	!	!	!	!	!	!	!	!	!	!	!
8.D\L	.	.	16ff#\LL	16dd\LL	.	8.D\	Do-	8.A\	Do-	8.a\	Do-	8.dd\	Do-	.	2r
.	.	.	16dd\JJ	16f#/JJ	.	.	.	.	.	.	.	.	.	.	.
*	*	*	*Xtuplet	*Xtuplet	*	*	*	*	*	*	*	*	*	*	*
!	!	!	!LO:TX:a:t=P:problem:triola oznaczona kropką pod klamrą łukową:global	!LO:TX:a:t=P:problem:triola oznaczona kropką pod klamrą łukową:global	!	!	!	!	!	!	!	!	!	!	!
.	.	.	24dd\LL	24f#/LL	.	.	.	.	.	.	.	.	.	.	.
.	.	.	24cc#\	24e/	.	.	.	.	.	.	.	.	.	.	.
16D\Jk	.	.	.	.	.	16D\	-mi-	16d\	-mi-	16a\	-mi-	16ff#\	-mi-	.	.
.	.	.	24dd\JJ	24f#/JJ	.	.	.	.	.	.	.	.	.	.	.
4D\	.	.	16aa\LL	(16dd\LL	.	4D\	-nus	4d\	-nus	4a\	-nus	4ff#\	-nus	.	.
.	.	.	16ddd\	16ff#\	.	.	.	.	.	.	.	.	.	.	.
.	.	.	16ddd\	16ff#\)	.	.	.	.	.	.	.	.	.	.	.
.	.	.	16ff#\JJ	16dd\JJ	.	.	.	.	.	.	.	.	.	.	.
=4	=4	=4	=4	=4	=4	=4	=4	=4	=4	=4	=4	=4	=4	=4	=4
4A\	.	.	16gg\LL	16ff#\LL	.	4A\	De-	4c#\	De-	4a\	De-	4ee\	De-	4a/	4ee\
.	.	.	16ee\JJ	16cc#\JJ	.	.	.	.	.	.	.	.	.	.	.
.	.	.	24ee\LL	24cc#\LL	.	.	.	.	.	.	.	.	.	.	.
.	.	.	24dd\	24b\	.	.	.	.	.	.	.	.	.	.	.
.	.	.	24ee\JJ	24cc#\JJ	.	.	.	.	.	.	.	.	.	.	.
!	!	!	!	!LO:LB:g=original	!	!	!	!	!	!	!	!	!	!	!
!	!	!	!	!LO:TX:a:t=P:problem:niewyraźne łukowanie	!	!	!	!	!	!	!	!	!	!	!
4A\	.	.	16gg\LL	(16ee\LL	.	4A\	-us	4e\	-us	4a\	-us	4gg\	-us	8a/L	8ee\L
.	.	.	16bb\	16gg\	.	.	.	.	.	.	.	.	.	.	.
.	.	.	16bb\	16gg\)	.	.	.	.	.	.	.	.	.	8a/J	8ee\J
.	.	.	16gg\JJ	16ee\JJ	.	.	.	.	.	.	.	.	.	.	.
8.D\L	.	.	16ff#\LL	16ff#\LL	.	8.D\	Do-	8.d\	Sa-	8.a\	Sa-	8.ff#\	Sa-	4dd\	4ff#\
.	.	.	16dd\JJ	16dd\JJ	.	.	.	.	.	.	.	.	.	.	.
!	!	!	!LO:LB:g=original	!	!	!	!	!	!	!	!	!	!	!	!
.	.	.	24dd\LL	24dd\LL	.	.	.	.	.	.	.	.	.	.	.
.	.	.	24cc#\	24cc#\	.	.	.	.	.	.	.	.	.	.	.
16D\Jk	.	.	.	.	.	16D\	-mi-	16d\	-ba-	16a\	-ba-	16ff#\	-ba-	.	.
.	.	.	24dd\JJ	24dd\JJ	.	.	.	.	.	.	.	.	.	.	.
4D\	.	.	8ff#\L	8ddd\L	.	4D\	-nus	4d\	-oth	4a\	-oth	4ff#\	-oth	8dd\L	8ff#\L
.	.	.	8dd\J	8ff#\J	.	.	.	.	.	.	.	.	.	8dd\J	8ff#\J
=5	=5	=5	=5	=5	=5	=5	=5	=5	=5	=5	=5	=5	=5	=5	=5
4A\	.	.	16gg\LL	16ee\LL	.	4A\	De-	4c#\	De-	4a\	De-	4ee\	De-	4a/	4ee\
.	.	.	16ee\JJ	16cc#\JJ	.	.	.	.	.	.	.	.	.	.	.
.	.	.	24ee\LL	24cc#\LL	.	.	.	.	.	.	.	.	.	.	.
.	.	.	24dd\	24b\	.	.	.	.	.	.	.	.	.	.	.
.	.	.	24ee\JJ	24cc#\JJ	.	.	.	.	.	.	.	.	.	.	.
4A\	.	.	16ee\LL	16gg\LL	.	4A\	-us	4c#\	-us	4a\	-us	4ee\	-us	8a/L	8ee\L
.	.	.	16cc#\JJ	16ee\JJ	.	.	.	.	.	.	.	.	.	.	.
.	.	.	24cc#\LL	24ee\LL	.	.	.	.	.	.	.	.	.	8a/J	8ee\J
.	.	.	24b\	24dd\	.	.	.	.	.	.	.	.	.	.	.
.	.	.	24cc#\JJ	24ee\JJ	.	.	.	.	.	.	.	.	.	.	.
8D\L	.	.	8dd\L	16ff#\LL	.	8D\	De-	(8d\L	Sa-	8a\	De-	8ff#\	De-	8dd\L	8ff#\L
.	.	.	.	16dd\	.	.	.	.	.	.	.	.	.	.	.
8E\	.	.	8ff#\	16gg\	.	8E\	-us	8e\J)	.	8a\	-us	8gg\	-us	8ee\	8gg\
.	.	.	.	16ee\JJ	.	.	.	.	.	.	.	.	.	.	.
8F#\	.	.	8ff#\	8aa\L	.	8F#\	Sa-	(8f#\L	-ba-	8dd\	Sa-	8aa\	Sa-	8ff#\	8aa\
8G#X\J	.	.	8dd\J	8ff#\J	.	8G\	-ba-	8A\J)	.	8dd\	-ba-	8ff#\	-ba-	8dd\J	8ff#\J
!	!	!	!	!	!	!LO:LB:g=original	!	!LO:LB:g=original	!	!LO:LB:g=original	!	!	!	!	!
=6	=6	=6	=6	=6	=6	=6	=6	=6	=6	=6	=6	=6	=6	=6	=6
!	!	!	!	!LO:TX:a:t=P:problem:mixed beam	!	!	!	!	!	!	!	!	!	!	!
4A\	.	.	16cc#\LL	16a/LL	.	4A\	-oth	4A\	-oth	4cc#\	-oth	4ee\	-oth	8a/L	8ee\L
.	.	.	16aa\	16aa\	.	.	.	.	.	.	.	.	.	.	.
.	.	.	16ee\	16ee\	.	.	.	.	.	.	.	.	.	8a/J	8ee\J
.	.	.	16cc#\JJ	16cc#\JJ	.	.	.	.	.	.	.	.	.	.	.
4r	.	.	4a/	4a/	.	4r	.	4r	.	4r	.	4r	.	4a/	4ee\
4r	.	.	4r	4r	.	4r	.	4r	.	4r	.	4r	.	4r	4r
!	!	!	!	!	!	!	!	!	!	!	!	!LO:TX:a:t=allo	!	!	!
8r	.	.	8r	8r	.	8r	.	8r	.	8r	.	8r	.	8r	8r
!LO:TX:a:t=Allo	!	!	!LO:TX:a:t=allo	!LO:TX:a:t=Allo	!	!LO:TX:a:t=allo	!	!LO:TX:a:t=Allo	!	!LO:TX:a:t=allo	!	!	!	!LO:TX:a:t=allo	!LO:TX:a:t=allo
8A\	.	.	8a\	8ee\	.	8A\	Ple-	8c#\	ple-	8a\	ple-	8ee\	Ple-	8a/	8ee\
!	!	!	!	!	!	!	!	!	!	!	!	!	!	!	!LO:LB:g=original
=7	=7	=7	=7	=7	=7	=7	=7	=7	=7	=7	=7	=7	=7	=7	=7
!LO:TX:a:t=P:problem:mixed beam	!	!	!	!	!	!	!	!	!	!	!	!	!	!	!
8d\L	0	.	8dd\L	(16ff#\LL	.	8d\	-ni-	8d\	-ni-	8a\	-ni-	8ff#\	-ni-	4dd\	4ff#\
.	.	.	.	16dd\)	.	.	.	.	.	.	.	.	.	.	.
8D/	.	.	8ff#\	(16aa\	.	8d\	-sunt	8d\	-sunt	8a\	-sunt	8ff#\	-sunt	.	.
.	.	.	.	16ff#\JJ)	.	.	.	.	.	.	.	.	.	.	.
8D/	.	.	8ff#\	8ddd\L	.	8d\	cel-	8d\	cel-	8a\	cel-	8ff#\	cel-	4dd\	4ff#\
8D/J	.	.	8dd\J	8ff#\J	.	8D\	-li	8d\	-li	8a\	-li	8ff#\	-li	.	.
4A\	.	.	8a\L	16cc#\LL	.	4A\	et	4c#\	et	4a\	et	4ee\	et	4a\	4ee\
.	.	.	.	16a\	.	.	.	.	.	.	.	.	.	.	.
.	.	.	8cc#\	16ee\	.	.	.	.	.	.	.	.	.	.	.
.	.	.	.	16cc#\JJ	.	.	.	.	.	.	.	.	.	.	.
!LO:TX:a:t=P:problem: mixed beam	!	!	!	!LO:TX:a:t=P:problem: mixed beam	!	!	!	!	!	!	!	!	!	!	!
8A\L	7	.	8ee\	8ggL\	.	8A\	Ter-	8c#\	ter-	8a\	ter-	8ee\	ter-	4a\	4ee\
8AA/J	.	.	8a\J	8g/J	.	8AA/	-ra	8c#\	-ra	8a\	-ra	8ee\	-ra	.	.
!	!	!	!	!	!	!	!	!	!	!	!	!LO:LB:g=original	!	!LO:LB:g=original	!
=8	=8	=8	=8	=8	=8	=8	=8	=8	=8	=8	=8	=8	=8	=8	=8
!	!	!	!LO:TX:a:t=P:problem: mixed beam	!	!	!	!	!	!	!	!	!	!	!	!
4d\	.	.	8f#/L	(16ff#\LL	.	4d\	glo-	4d\	ter-	4.a\	glo-	4ff#\	glo-	4dd\	4ff#\
.	.	.	.	16dd\)	.	.	.	.	.	.	.	.	.	.	.
.	.	.	8dd\	(16aa\	.	.	.	.	.	.	.	.	.	.	.
.	.	.	.	16ff#\JJ)	.	.	.	.	.	.	.	.	.	.	.
!	!	!	!	!LO:LB:g=original	!	!	!	!	!	!	!	!	!	!	!
4d\	.	.	8ff#\	8ddd\L	.	8d\	-ri-	8d\	-ra	.	.	8ff#\	-ri-	4dd\	4ff#\
.	.	.	8dd\J	8ff#\J	.	8D\	-a	8d\	glo-	16a\	-ri-	8ff#\	-a	.	.
.	.	.	.	.	.	.	.	.	.	16a\	-a	.	.	.	.
!LO:TX:a:t=P:problem: mixed beam	!	!	!	!	!	!	!	!	!	!	!	!	!	!	!
8A\L	6	.	8dd\L	8ff#\L	.	8A\	tu-	8d\	-ri-	8a\	tu-	8ff#\	Tu-	8dd\L	8ff#\L
8AA/J	5	.	8cc#\J	8ee\J	.	8A\	-a	8c#\	-a	8a\	-a	8ee\	-a	8a\J	8ee\J
4r	.	.	16cc#\LL	16cc#\LL	.	4r	.	4r	.	4r	.	4r	.	4r	4r
.	.	.	16a\	16a\	.	.	.	.	.	.	.	.	.	.	.
.	.	.	16cc#\	16cc#\	.	.	.	.	.	.	.	.	.	.	.
.	.	.	16ee\JJ	16ee\JJ	.	.	.	.	.	.	.	.	.	.	.
=9	=9	=9	=9	=9	=9	=9	=9	=9	=9	=9	=9	=9	=9	=9	=9
4A\	.	.	16a\LL	16a\LL	.	4A\	O-	4e\	O-	4cc#\	O-	4gg\	O-	4a/	4a/
.	.	.	16ee\	16gg\	.	.	.	.	.	.	.	.	.	.	.
.	.	.	16dd\	16ff#\	.	.	.	.	.	.	.	.	.	.	.
.	.	.	16ee\JJ	16gg\JJ	.	.	.	.	.	.	.	.	.	.	.
8A\L	.	.	16gg\LL	16bb\LL	.	8A\	-san-	8e\	-san-	8cc#\	-san-	8gg\	-san-	4ee\	4gg\
.	.	.	16ee\	16gg\	.	.	.	.	.	.	.	.	.	.	.
8A\J	.	.	16dd\	16ff#\	.	8A\	-na	8e\	-na	8cc#\	-na	8gg\	-na	.	.
.	.	.	16ee\JJ	16gg\JJ	.	.	.	.	.	.	.	.	.	.	.
*	*	*	*	*	*	*	*	*	*	*	*ij	*	*	*	*
4A\	.	.	16a\LL	16a\LL	.	4A\	O-	4e\	O-	4cc#\	O-	4gg\	O-	4a/	4a/
.	.	.	16ee\	16gg\	.	.	.	.	.	.	.	.	.	.	.
.	.	.	16dd\	16ff#\	.	.	.	.	.	.	.	.	.	.	.
.	.	.	16ee\JJ	16gg\JJ	.	.	.	.	.	.	.	.	.	.	.
!	!	!	!LO:LB:g=original	!	!	!	!	!	!	!	!	!	!	!	!
8A\L	.	.	16gg\LL	16bb\LL	.	8A\	-san-	8e\	-san-	8cc#\	-san-	8gg\	-san-	4ee\	4gg\
.	.	.	16ee\	16gg\	.	.	.	.	.	.	.	.	.	.	.
*	*	*	*	*	*	*	*	*	*	*	*Xij	*	*	*	*
8A\J	.	.	16dd\	16ff#\	.	8A\	-na	8e\	-na	8cc#\	-na	8gg\	-na	.	.
.	.	.	16ee\JJ	16gg\JJ	.	.	.	.	.	.	.	.	.	.	.
=10	=10	=10	=10	=10	=10	=10	=10	=10	=10	=10	=10	=10	=10	=10	=10
4d\	.	.	8dd\L	8aa\L	.	8d\	in	8d\	in	8a\	in	8ff#\	in	8dd\L	8ff#\L
.	.	.	8ff#\	8ddd\J	.	8D\	ex-	8d\	ex-	8a\	ex-	8ff#\	ex-	8dd\J	8ff#\J
4A\	.	.	8a\	8cc#\L	.	4A\	-cel-	4c#\	-cel-	4a\	-cel-	4ee\	-cel-	4a/	4ff#\
.	.	.	8ee\J	8ccc#\J	.	.	.	.	.	.	.	.	.	.	.
4D\	.	.	4d/ 4a 4ff#	4ddd\	.	4D\	-sis	4d\	-sis	4a\	-sis	4ff#\	-sis	4dd\	4ff#\
4r	.	.	4r	4r	.	4r	.	4r	.	4r	.	4r	.	4r	4r
!LO:LB:g=original	!	!	!	!LO:LB:g=original	!	!LO:LB:g=original	!	!LO:LB:g=original	!	!LO:LB:g=original	!	!	!	!LO:LB:g=original	!LO:LB:g=original
=11||	=11||	=11||	=11||	=11||	=11||	=11||;;	=11||	=11||	=11||	=11||	=11||	=11||	=11||	=11||	=11||
*k[f#c#g#]	*	*	*	*k[f#c#g#]	*	*	*	*	*	*	*	*k[f#c#g#]	*	*	*
*M2/4	*	*	*M2/4	*M2/4	*	*M2/4	*	*M2/4	*	*M2/4	*	*M2/4	*	*M2/4	*M2/4
!LO:TX:a:t=adazio	!	!	!	!LO:TX:b:i:t=Benedictus	!	!	!	!	!	!	!	!	!	!	!
!LO:TX:b:t=Benedictus	!	!	!	!LO:TX:a:t=P:problem:klamra łukowa, kropka:global	!	!	!	!	!	!	!	!	!	!	!
!	!	!	!LO:TX:a:t=Benedictus tacet	!LO:TX:a:t=solo	!	!LO:TX:a:t=Benedictus Tacet	!	!LO:TX:a:t=Benedictus Tacet	!	!LO:TX:a:t=Benedictus Tacet	!	!LO:N:vis=00	!	!LO:TX:a:t=Benedictus Tacet	!LO:TX:a:t=Benedictus Tacet
4A\	.	.	2ryy	24gg#\LL	.	2ryy	.	2ryy	.	2ryy	.	0r	.	2ryy	2ryy
.	.	.	.	24aa\	.	.	.	.	.	.	.	.	.	.	.
.	.	.	.	24ee\JJ	.	.	.	.	.	.	.	.	.	.	.
.	.	.	.	24ee\LL	.	.	.	.	.	.	.	.	.	.	.
.	.	.	.	24ff#\	.	.	.	.	.	.	.	.	.	.	.
.	.	.	.	24dd\JJ	.	.	.	.	.	.	.	.	.	.	.
8A\L	.	.	.	24cc#\LL	.	.	.	.	.	.	.	.	.	.	.
.	.	.	.	24dd\	.	.	.	.	.	.	.	.	.	.	.
.	.	.	.	24b\JJ	.	.	.	.	.	.	.	.	.	.	.
8E\J	.	.	.	16a/LL	.	.	.	.	.	.	.	.	.	.	.
.	.	.	.	16g#/JJ	.	.	.	.	.	.	.	.	.	.	.
=12	=12	=12	=12	=12	=12	=12	=12	=12	=12	=12	=12	=12	=12	=12	=12
!	!	!	!	!LO:TX:a:t=P:problem:klamra łukowa, kropka	!	!	!	!	!	!	!	!	!	!	!
8r	.	.	2ryy	24a/LL	.	2ryy	.	2ryy	.	2ryy	.	.	.	2ryy	2ryy
.	.	.	.	24b/	.	.	.	.	.	.	.	.	.	.	.
.	.	.	.	24cc#/JJ	.	.	.	.	.	.	.	.	.	.	.
8A\L	.	.	.	16cc#\LL	.	.	.	.	.	.	.	.	.	.	.
.	.	.	.	16b\JJ	.	.	.	.	.	.	.	.	.	.	.
8c#\	.	.	.	8r	.	.	.	.	.	.	.	.	.	.	.
!	!	!	!	!LO:TX:a:t=P:problem:brak oznaczenia trioli	!	!	!	!	!	!	!	!	!	!	!
8A\J	.	.	.	24aa\LL	.	.	.	.	.	.	.	.	.	.	.
.	.	.	.	24gg#\	.	.	.	.	.	.	.	.	.	.	.
.	.	.	.	24aa\JJ	.	.	.	.	.	.	.	.	.	.	.
=13	=13	=13	=13	=13	=13	=13	=13	=13	=13	=13	=13	=13	=13	=13	=13
!	!	!	!	!LO:TX:a:t=P:problem:klamra łukowa, kropka&colon;cały takt	!	!	!	!	!	!	!	!	!	!	!
4E\	.	.	2ryy	24gg#\LL	.	2ryy	.	2ryy	.	2ryy	.	.	.	2ryy	2ryy
.	.	.	.	24bb\	.	.	.	.	.	.	.	.	.	.	.
.	.	.	.	24aa\JJ	.	.	.	.	.	.	.	.	.	.	.
.	.	.	.	24gg#\LL	.	.	.	.	.	.	.	.	.	.	.
.	.	.	.	24ff#\	.	.	.	.	.	.	.	.	.	.	.
.	.	.	.	24ee\JJ	.	.	.	.	.	.	.	.	.	.	.
8E\L	.	.	.	24dd\LL	.	.	.	.	.	.	.	.	.	.	.
.	.	.	.	24cc#\	.	.	.	.	.	.	.	.	.	.	.
.	.	.	.	24b\JJ	.	.	.	.	.	.	.	.	.	.	.
8E\J	.	.	.	24a/LL	.	.	.	.	.	.	.	.	.	.	.
.	.	.	.	24g#/	.	.	.	.	.	.	.	.	.	.	.
.	.	.	.	24f#/JJ	.	.	.	.	.	.	.	.	.	.	.
=14	=14	=14	=14	=14	=14	=14	=14	=14	=14	=14	=14	=14	=14	=14	=14
!	!	!	!	!LO:TX:a:t=P:problem:klamra łukowa, kropka	!	!	!	!	!	!	!	!	!	!	!
8AA/L	.	.	2ryy	24a/LL	.	2ryy	.	2ryy	.	2ryy	.	.	.	2ryy	2ryy
.	.	.	.	24b/	.	.	.	.	.	.	.	.	.	.	.
.	.	.	.	24cc#/JJ	.	.	.	.	.	.	.	.	.	.	.
!LO:TX:a:t=P:problem: mixed beam	!	!	!	!	!	!	!	!	!	!	!	!	!	!	!
8A\	.	.	.	8b\	.	.	.	.	.	.	.	.	.	.	.
8c#\	.	.	.	8r	.	.	.	.	.	.	.	.	.	.	.
8A\J	.	.	.	24aa\LL	.	.	.	.	.	.	.	.	.	.	.
.	.	.	.	24gg#\	.	.	.	.	.	.	.	.	.	.	.
.	.	.	.	24aa\JJ	.	.	.	.	.	.	.	.	.	.	.
=15	=15	=15	=15	=15	=15	=15	=15	=15	=15	=15	=15	=15	=15	=15	=15
!	!	!	!	!LO:TX:a:t=P:problem:klamra łukowa, kropka w całym takcie	!	!	!	!	!	!	!	!LO:N:vis=00	!	!	!
4E\	.	.	2ryy	24gg#\LL	.	2ryy	.	2ryy	.	2ryy	.	0r	.	2ryy	2ryy
.	.	.	.	24bb\	.	.	.	.	.	.	.	.	.	.	.
.	.	.	.	24aa\JJ	.	.	.	.	.	.	.	.	.	.	.
.	.	.	.	24gg#\LL	.	.	.	.	.	.	.	.	.	.	.
.	.	.	.	24ff#\	.	.	.	.	.	.	.	.	.	.	.
.	.	.	.	24ee\JJ	.	.	.	.	.	.	.	.	.	.	.
8E\L	.	.	.	32dd/LLL	.	.	.	.	.	.	.	.	.	.	.
.	.	.	.	32cc#/	.	.	.	.	.	.	.	.	.	.	.
.	.	.	.	32b/	.	.	.	.	.	.	.	.	.	.	.
.	.	.	.	32a/	.	.	.	.	.	.	.	.	.	.	.
8E\J	.	.	.	32g#/	.	.	.	.	.	.	.	.	.	.	.
.	.	.	.	32f#/	.	.	.	.	.	.	.	.	.	.	.
.	.	.	.	32e/	.	.	.	.	.	.	.	.	.	.	.
.	.	.	.	32d/JJJ	.	.	.	.	.	.	.	.	.	.	.
!	!	!	!	!LO:LB:g=original	!	!	!	!	!	!	!	!	!	!	!
=16	=16	=16	=16	=16	=16	=16	=16	=16	=16	=16	=16	=16	=16	=16	=16
8A\L	.	.	2ryy	8d/L	.	2ryy	.	2ryy	.	2ryy	.	.	.	2ryy	2ryy
!LO:TX:a:t=P:problem: mixed beam	!	!	!	!	!	!	!	!	!	!	!	!	!	!	!
8E\	.	.	.	8c#/J	.	.	.	.	.	.	.	.	.	.	.
8AA/J	.	.	.	8r	.	.	.	.	.	.	.	.	.	.	.
8r	.	.	.	24a/LL	.	.	.	.	.	.	.	.	.	.	.
.	.	.	.	24cc#/	.	.	.	.	.	.	.	.	.	.	.
.	.	.	.	24ee/JJ	.	.	.	.	.	.	.	.	.	.	.
=17	=17	=17	=17	=17	=17	=17	=17	=17	=17	=17	=17	=17	=17	=17	=17
!	!	!	!	!LO:TX:a:t=P:problem:klamra łukowa, kropka	!	!	!	!	!	!	!	!	!	!	!
4E\	.	.	2ryy	24dd\LL	.	2ryy	.	2ryy	.	2ryy	.	.	.	2ryy	2ryy
.	.	.	.	24cc#\	.	.	.	.	.	.	.	.	.	.	.
.	.	.	.	24dd\JJ	.	.	.	.	.	.	.	.	.	.	.
.	.	.	.	16e/LL	.	.	.	.	.	.	.	.	.	.	.
.	.	.	.	16e/JJ	.	.	.	.	.	.	.	.	.	.	.
8E\L	.	.	.	16e/LL	.	.	.	.	.	.	.	.	.	.	.
.	.	.	.	16e/	.	.	.	.	.	.	.	.	.	.	.
8E\J	.	.	.	16b/	.	.	.	.	.	.	.	.	.	.	.
.	.	.	.	16dd/JJ	.	.	.	.	.	.	.	.	.	.	.
=18	=18	=18	=18	=18	=18	=18	=18	=18	=18	=18	=18	=18	=18	=18	=18
8A\L	.	.	2ryy	24cc#\LL	.	2ryy	.	2ryy	.	2ryy	.	.	.	2ryy	2ryy
.	.	.	.	24b\	.	.	.	.	.	.	.	.	.	.	.
.	.	.	.	24cc#\JJ	.	.	.	.	.	.	.	.	.	.	.
!LO:TX:a:t=P:problem: mixed beam	!	!	!	!	!	!	!	!	!	!	!	!	!	!	!
8AA/J	.	.	.	16a/LL	.	.	.	.	.	.	.	.	.	.	.
.	.	.	.	16e/JJ	.	.	.	.	.	.	.	.	.	.	.
8r	.	.	.	16e/LL	.	.	.	.	.	.	.	.	.	.	.
.	.	.	.	16e/	.	.	.	.	.	.	.	.	.	.	.
8A\	.	.	.	16cc#/	.	.	.	.	.	.	.	.	.	.	.
.	.	.	.	16ee/JJ	.	.	.	.	.	.	.	.	.	.	.
=19	=19	=19	=19	=19	=19	=19	=19	=19	=19	=19	=19	=19	=19	=19	=19
!	!	!	!	!	!	!	!	!	!	!	!	!LO:N:vis=00	!	!	!
4E\	.	.	2ryy	24dd\LL	.	2ryy	.	2ryy	.	2ryy	.	0r	.	2ryy	2ryy
.	.	.	.	24cc#\	.	.	.	.	.	.	.	.	.	.	.
.	.	.	.	24dd\JJ	.	.	.	.	.	.	.	.	.	.	.
.	.	.	.	16e/LL	.	.	.	.	.	.	.	.	.	.	.
.	.	.	.	16e/JJ	.	.	.	.	.	.	.	.	.	.	.
8E\L	.	.	.	16e/LL	.	.	.	.	.	.	.	.	.	.	.
.	.	.	.	16e/	.	.	.	.	.	.	.	.	.	.	.
8E\J	.	.	.	16b/	.	.	.	.	.	.	.	.	.	.	.
.	.	.	.	16dd/JJ	.	.	.	.	.	.	.	.	.	.	.
=20	=20	=20	=20	=20	=20	=20	=20	=20	=20	=20	=20	=20	=20	=20	=20
!LO:TX:a:t=P:problem: mixed beam	!	!	!	!	!	!	!	!	!	!	!	!	!	!	!
8AA/L	.	.	2ryy	24cc#\LL	.	2ryy	.	2ryy	.	2ryy	.	.	.	2ryy	2ryy
.	.	.	.	24b\	.	.	.	.	.	.	.	.	.	.	.
.	.	.	.	24cc#\JJ	.	.	.	.	.	.	.	.	.	.	.
8A\	.	.	.	8a/	.	.	.	.	.	.	.	.	.	.	.
8c#\	.	.	.	8r	.	.	.	.	.	.	.	.	.	.	.
8A\J	.	.	.	24ee\LL	.	.	.	.	.	.	.	.	.	.	.
.	.	.	.	24ee\	.	.	.	.	.	.	.	.	.	.	.
.	.	.	.	24aa\JJ	.	.	.	.	.	.	.	.	.	.	.
=21	=21	=21	=21	=21	=21	=21	=21	=21	=21	=21	=21	=21	=21	=21	=21
!	!	!	!	!LO:TX:a:t=P:problem:klamra łukowa, kropka&colon;cały takt	!	!	!	!	!	!	!	!	!	!	!
4D\	.	.	2ryy	24ff#\LL	.	2ryy	.	2ryy	.	2ryy	.	.	.	2ryy	2ryy
.	.	.	.	24ee\	.	.	.	.	.	.	.	.	.	.	.
.	.	.	.	24ff#\JJ	.	.	.	.	.	.	.	.	.	.	.
.	.	.	.	16d/LL	.	.	.	.	.	.	.	.	.	.	.
!	!	!	!	!LO:TX:a:t=P:problem: mixed beam	!	!	!	!	!	!	!	!	!	!	!
.	.	.	.	16ff#\JJ	.	.	.	.	.	.	.	.	.	.	.
4E\	.	.	.	24gg#\LL	.	.	.	.	.	.	.	.	.	.	.
.	.	.	.	24ff#\	.	.	.	.	.	.	.	.	.	.	.
.	.	.	.	24gg#\JJ	.	.	.	.	.	.	.	.	.	.	.
.	.	.	.	16e/LL	.	.	.	.	.	.	.	.	.	.	.
!	!	!	!	!LO:TX:a:t=P:problem: mixed beam	!	!	!	!	!	!	!	!	!	!	!
.	.	.	.	16gg#\JJ	.	.	.	.	.	.	.	.	.	.	.
=22	=22	=22	=22	=22	=22	=22	=22	=22	=22	=22	=22	=22	=22	=22	=22
4F#\	.	.	2ryy	24aa\LL	.	2ryy	.	2ryy	.	2ryy	.	.	.	2ryy	2ryy
.	.	.	.	24gg#\	.	.	.	.	.	.	.	.	.	.	.
.	.	.	.	24aa\JJ	.	.	.	.	.	.	.	.	.	.	.
!	!	!	!	!LO:LB:g=original	!	!	!	!	!	!	!	!	!	!	!
!	!	!	!	!LO:TX:a:t=P:problem: mixed beam	!	!	!	!	!	!	!	!	!	!	!
.	.	.	.	16f#/LL	.	.	.	.	.	.	.	.	.	.	.
.	.	.	.	16aa\JJ	.	.	.	.	.	.	.	.	.	.	.
4G#X\	.	.	.	24bb\LL	.	.	.	.	.	.	.	.	.	.	.
.	.	.	.	24aa\	.	.	.	.	.	.	.	.	.	.	.
.	.	.	.	24bb\JJ	.	.	.	.	.	.	.	.	.	.	.
!	!	!	!	!LO:TX:a:t=P:problem:mixed beam	!	!	!	!	!	!	!	!	!	!	!
.	.	.	.	16g#/LL	.	.	.	.	.	.	.	.	.	.	.
.	.	.	.	16bb\JJ	.	.	.	.	.	.	.	.	.	.	.
=23	=23	=23	=23	=23	=23	=23	=23	=23	=23	=23	=23	=23	=23	=23	=23
!	!	!	!	!	!	!	!	!	!	!	!	!LO:N:vis=0	!	!	!
8A\	.	.	2ryy	24ccc#\LL	.	2ryy	.	2ryy	.	2ryy	.	1r	.	2ryy	2ryy
.	.	.	.	24bb\	.	.	.	.	.	.	.	.	.	.	.
.	.	.	.	24aa\JJ	.	.	.	.	.	.	.	.	.	.	.
8r	.	.	.	24gg#\LL	.	.	.	.	.	.	.	.	.	.	.
.	.	.	.	24ff#\	.	.	.	.	.	.	.	.	.	.	.
.	.	.	.	24ee\JJ	.	.	.	.	.	.	.	.	.	.	.
!LO:TX:a:t=P:problem: mixed beam	!	!	!	!	!	!	!	!	!	!	!	!	!	!	!
8B\L	4	.	.	8ee\L	.	.	.	.	.	.	.	.	.	.	.
8BB/J	3#	.	.	8ddn\J	.	.	.	.	.	.	.	.	.	.	.
=24	=24	=24	=24	=24	=24	=24	=24	=24	=24	=24	=24	=24	=24	=24	=24
8E\L	7_	.	2ryy	24ff#\LL	.	2ryy	.	2ryy	.	2ryy	.	.	.	2ryy	2ryy
.	.	.	.	24ee\	.	.	.	.	.	.	.	.	.	.	.
.	.	.	.	24ddn\JJ	.	.	.	.	.	.	.	.	.	.	.
8E\	.	.	.	24dd\LL	.	.	.	.	.	.	.	.	.	.	.
.	.	.	.	24cc#\	.	.	.	.	.	.	.	.	.	.	.
.	.	.	.	24b\JJ	.	.	.	.	.	.	.	.	.	.	.
8E\	.	.	.	8b\L	.	.	.	.	.	.	.	.	.	.	.
8E\J	5	.	.	8dd\J	.	.	.	.	.	.	.	.	.	.	.
=25	=25	=25	=25	=25	=25	=25	=25	=25	=25	=25	=25	=25	=25	=25	=25
8AA/L	.	.	2ryy	24cc#\LL	.	2ryy	.	2ryy	.	2ryy	.	2r	.	2ryy	2ryy
.	.	.	.	24dd\	.	.	.	.	.	.	.	.	.	.	.
.	.	.	.	24ee\JJ	.	.	.	.	.	.	.	.	.	.	.
8C#/	.	.	.	24ff#\LL	.	.	.	.	.	.	.	.	.	.	.
.	.	.	.	24gg#\	.	.	.	.	.	.	.	.	.	.	.
.	.	.	.	24aa\JJ	.	.	.	.	.	.	.	.	.	.	.
8D/	.	.	.	8cc#\L	.	.	.	.	.	.	.	.	.	.	.
8E/J	.	.	.	8b\J	.	.	.	.	.	.	.	.	.	.	.
=26	=26	=26	=26	=26	=26	=26	=26	=26	=26	=26	=26	=26	=26	=26	=26
*	*	*	*	*	*	*	*	*	*	*	*	*Xtuplet	*	*	*
!	!	!	!	!	!	!	!	!	!	!	!	!LO:TX:a:t=P:problem:brak oznaczenia trioli	!	!	!
4A\	.	.	2ryy	8a\	.	2ryy	.	2ryy	.	2ryy	.	24gg#\LL	Be-	2ryy	2ryy
.	.	.	.	.	.	.	.	.	.	.	.	24aa\	.	.	.
.	.	.	.	.	.	.	.	.	.	.	.	24gg#\JJ	.	.	.
.	.	.	.	24ee\LL	.	.	.	.	.	.	.	24ee\LL	.	.	.
.	.	.	.	24ff#\	.	.	.	.	.	.	.	24ff#\	.	.	.
.	.	.	.	24dd\JJ	.	.	.	.	.	.	.	24ee\JJ	.	.	.
8A\L	.	.	.	24cc#\LL	.	.	.	.	.	.	.	24cc#\LL	.	.	.
.	.	.	.	24dd\	.	.	.	.	.	.	.	24dd\	.	.	.
.	.	.	.	24b\JJ	.	.	.	.	.	.	.	24b\JJ	.	.	.
8E\J	.	p	.	16a/LL	.	.	.	.	.	.	.	16a\LL	-ne-	.	.
.	.	.	.	16g#/JJ	.	.	.	.	.	.	.	16g#\JJ	.	.	.
=27	=27	=27	=27	=27	=27	=27	=27	=27	=27	=27	=27	=27	=27	=27	=27
8r	.	.	2ryy	24a/LL	.	2ryy	.	2ryy	.	2ryy	.	24a\LL	-di-	2ryy	2ryy
.	.	.	.	24b/	.	.	.	.	.	.	.	24b\	.	.	.
.	.	.	.	24cc#/JJ	.	.	.	.	.	.	.	24cc#\JJ	.	.	.
8A\	.	.	.	8b\	.	.	.	.	.	.	.	8cc#\	-ctus	.	.
8E\L	.	.	.	8r	.	.	.	.	.	.	.	8r	.	.	.
8E\J	.	.	.	24aa\LL	.	.	.	.	.	.	.	8aa\	qui	.	.
.	.	.	.	24gg#\	.	.	.	.	.	.	.	.	.	.	.
.	.	.	.	24aa\JJ	.	.	.	.	.	.	.	.	.	.	.
!LO:LB:g=original	!	!	!	!LO:LB:g=original	!	!	!	!	!	!	!	!	!	!	!
=28	=28	=28	=28	=28	=28	=28	=28	=28	=28	=28	=28	=28	=28	=28	=28
8AA/L	.	.	2ryy	24gg#\LL	.	2ryy	.	2ryy	.	2ryy	.	24gg#\LL	ve-	2ryy	2ryy
.	.	.	.	24bb\	.	.	.	.	.	.	.	24bb\	.	.	.
.	.	.	.	24aa\JJ	.	.	.	.	.	.	.	24aa\JJ	.	.	.
!LO:TX:a:t=P:problem: mixed beam	!	!	!	!	!	!	!	!	!	!	!	!LO:LB:g=original	!	!	!
8A\	.	.	.	24gg#\LL	.	.	.	.	.	.	.	24gg#\LL	.	.	.
.	.	.	.	24ff#\	.	.	.	.	.	.	.	24ff#\	.	.	.
.	.	.	.	24ee\JJ	.	.	.	.	.	.	.	24ee\JJ	.	.	.
8c#\	.	.	.	32dd/LLL	.	.	.	.	.	.	.	8dd\	.	.	.
.	.	.	.	32cc#/	.	.	.	.	.	.	.	.	.	.	.
.	.	.	.	32b/	.	.	.	.	.	.	.	.	.	.	.
.	.	.	.	32a/	.	.	.	.	.	.	.	.	.	.	.
8A\J	.	.	.	32g#/	.	.	.	.	.	.	.	16b\	-nit	.	.
.	.	.	.	32f#/	.	.	.	.	.	.	.	.	.	.	.
.	.	.	.	32e/	.	.	.	.	.	.	.	16dd\	qui	.	.
.	.	.	.	32d/JJJ	.	.	.	.	.	.	.	.	.	.	.
=29	=29	=29	=29	=29	=29	=29	=29	=29	=29	=29	=29	=29	=29	=29	=29
8D\	.	.	2ryy	8d/L	.	2ryy	.	2ryy	.	2ryy	.	8dd\	ve-	2ryy	2ryy
8r	.	.	.	8c#/J	.	.	.	.	.	.	.	8cc#\	-nit	.	.
8r	.	.	.	8r	.	.	.	.	.	.	.	8r	.	.	.
8D#X\	6	.	.	24a\LL	.	.	.	.	.	.	.	16ee\LL	in	.	.
.	.	.	.	24ee\	.	.	.	.	.	.	.	.	.	.	.
.	.	.	.	.	.	.	.	.	.	.	.	16cc#\JJ	.	.	.
.	.	.	.	24cc#\JJ	.	.	.	.	.	.	.	.	.	.	.
=30	=30	=30	=30	=30	=30	=30	=30	=30	=30	=30	=30	=30	=30	=30	=30
8E\L	6	.	2ryy	16dd\LL	.	2ryy	.	2ryy	.	2ryy	.	(8ff#\L	No-	2ryy	2ryy
.	.	.	.	[16ff#\	.	.	.	.	.	.	.	.	.	.	.
8E\J	5	.	.	16ff#\]	.	.	.	.	.	.	.	8ee\J)	.	.	.
.	.	.	.	16ee\JJ	.	.	.	.	.	.	.	.	.	.	.
4r	.	.	.	16ee\LL	.	.	.	.	.	.	.	8dd\	-mi-	.	.
.	.	.	.	[16dd\	.	.	.	.	.	.	.	.	.	.	.
.	.	.	.	16dd\]	.	.	.	.	.	.	.	8cc#\	-ne	.	.
.	.	.	.	16cc#\JJ	.	.	.	.	.	.	.	.	.	.	.
=31	=31	=31	=31	=31	=31	=31	=31	=31	=31	=31	=31	=31	=31	=31	=31
!	!	!	!	!LO:TX:a:t=P:problem:klamra łukowa, kropka	!	!	!	!	!	!	!	!	!	!	!
4E\	.	.	2ryy	24cc#\LL	.	2ryy	.	2ryy	.	2ryy	.	16a\	Do-	2ryy	2ryy
.	.	.	.	24b\	.	.	.	.	.	.	.	.	.	.	.
.	.	.	.	.	.	.	.	.	.	.	.	16cc#\	-mi-	.	.
.	.	.	.	24cc#\JJ	.	.	.	.	.	.	.	.	.	.	.
.	.	.	.	16b\LL	.	.	.	.	.	.	.	8b\	-ni	.	.
.	.	.	.	16bb\	.	.	.	.	.	.	.	.	.	.	.
4r	.	.	.	16gg#\	.	.	.	.	.	.	.	4r	.	.	.
.	.	.	.	16ee\JJ	.	.	.	.	.	.	.	.	.	.	.
.	.	.	.	8e/	.	.	.	.	.	.	.	.	.	.	.
=32	=32	=32	=32	=32	=32	=32	=32	=32	=32	=32	=32	=32	=32	=32	=32
!LO:TX:a:t=P:problem:brak taktu	!	!	!	!LO:TX:a:t=P:problem:p=pia:global	!	!	!	!	!	!	!	!	!	!	!
2ryy	.	.	2ryy	4ee\	p	2ryy	.	2ryy	.	2ryy	.	4ee\	Be-	2ryy	2ryy
.	.	.	.	16ee\LL	.	.	.	.	.	.	.	16ee\LL	.	.	.
.	.	.	.	16b\JJ	.	.	.	.	.	.	.	16b\JJ	.	.	.
.	.	.	.	24gg#\LL	.	.	.	.	.	.	.	24gg#\LL	-ne-	.	.
.	.	.	.	24ff#\	.	.	.	.	.	.	.	24ff#\	.	.	.
.	.	.	.	24ee\JJ	.	.	.	.	.	.	.	24ee\JJ	.	.	.
=33	=33	=33	=33	=33	=33	=33	=33	=33	=33	=33	=33	=33	=33	=33	=33
8r	.	.	2ryy	(16dd#X\LL	.	2ryy	.	2ryy	.	2ryy	.	16dd#X\LL	-di-	2ryy	2ryy
.	.	.	.	16ff#\J)	.	.	.	.	.	.	.	16ff#\JJ	.	.	.
8BB/L	.	.	.	8a\J	.	.	.	.	.	.	.	4a\	-ctus	.	.
8D#X/	.	.	.	16B/LL	.	.	.	.	.	.	.	.	.	.	.
.	.	.	.	16d#X/	.	.	.	.	.	.	.	.	.	.	.
8BB/J	.	.	.	16f#/	.	.	.	.	.	.	.	8a\	qui-	.	.
.	.	.	.	16a/JJ	.	.	.	.	.	.	.	.	.	.	.
=34	=34	=34	=34	=34	=34	=34	=34	=34	=34	=34	=34	=34	=34	=34	=34
4E\	.	.	2ryy	(16g#/LL	.	2ryy	.	2ryy	.	2ryy	.	8g#\	-ve-	2ryy	2ryy
.	.	.	.	16a/J)	.	.	.	.	.	.	.	.	.	.	.
.	.	.	.	8b/J	.	.	.	.	.	.	.	8b\	-nit	.	.
8G#\L	.	.	.	8r	.	.	.	.	.	.	.	4r	.	.	.
!	!	!	!	!LO:TX:a:t=P:problem:klamra łukowa  zamiast numeru	!	!	!	!	!	!	!	!	!	!	!
8E\J	.	.	.	24bb\LL	.	.	.	.	.	.	.	.	.	.	.
.	.	.	.	24gg#\	.	.	.	.	.	.	.	.	.	.	.
.	.	.	.	24ee\JJ	.	.	.	.	.	.	.	.	.	.	.
!	!	!	!	!LO:PB:g=original	!	!	!	!	!	!	!	!	!	!	!
=35	=35	=35	=35	=35	=35	=35	=35	=35	=35	=35	=35	=35	=35	=35	=35
8r	.	.	2ryy	16dd#X\LL	p	2ryy	.	2ryy	.	2ryy	.	4r	.	2ryy	2ryy
.	.	.	.	16ff#\	.	.	.	.	.	.	.	.	.	.	.
8BB/L	.	.	.	16b\	.	.	.	.	.	.	.	.	.	.	.
.	.	.	.	16b\JJ	.	.	.	.	.	.	.	.	.	.	.
8BB/	.	.	.	8b\L	.	.	.	.	.	.	.	8b\	be-	.	.
8BB/J	.	.	.	8a\J	.	.	.	.	.	.	.	8a\	-ne-	.	.
=36	=36	=36	=36	=36	=36	=36	=36	=36	=36	=36	=36	=36	=36	=36	=36
8BB/L	.	.	2ryy	8a/L	.	2ryy	.	2ryy	.	2ryy	.	8a\	-di-	2ryy	2ryy
8E/J	7	.	.	(16g#/L	.	.	.	.	.	.	.	8g#\	-ctus	.	.
.	.	.	.	16ee/JJ)	.	.	.	.	.	.	.	.	.	.	.
!	!	!	!	!	!LO:DY:t=for	!	!	!	!	!	!	!	!	!	!
8r	.	.	.	16f#/LL	f	.	.	.	.	.	.	8r	.	.	.
.	.	.	.	16B/	.	.	.	.	.	.	.	.	.	.	.
8E\	.	.	.	16f#/	.	.	.	.	.	.	.	8a\	qui	.	.
.	.	.	.	16a/JJ	.	.	.	.	.	.	.	.	.	.	.
=37	=37	=37	=37	=37	=37	=37	=37	=37	=37	=37	=37	=37	=37	=37	=37
8B\L	.	.	2ryy	16g#X/LL	p	2ryy	.	2ryy	.	2ryy	.	(16g#\LL	ve-	2ryy	2ryy
.	.	.	.	16e/J	.	.	.	.	.	.	.	16e\JJ)	.	.	.
!LO:TX:a:t=P:problem: mixed beam	!	!	!	!	!	!	!	!	!	!	!	!	!	!	!
8BB/J	.	.	.	8f#/J	.	.	.	.	.	.	.	8f#\	-nit	.	.
8r	.	.	.	16f#/LL	.	.	.	.	.	.	.	8r	.	.	.
.	.	.	.	16B/	.	.	.	.	.	.	.	.	.	.	.
8BB/	.	.	.	16f#/	.	.	.	.	.	.	.	8a\	in	.	.
.	.	.	.	16a/JJ	.	.	.	.	.	.	.	.	.	.	.
!	!	!	!	!	!	!	!	!	!	!	!	!LO:LB:g=original	!	!	!
=38	=38	=38	=38	=38	=38	=38	=38	=38	=38	=38	=38	=38	=38	=38	=38
8E\L	.	.	2ryy	(16g#/LL	.	2ryy	.	2ryy	.	2ryy	.	16g#/LL	no-	2ryy	2ryy
.	.	.	.	16e/J)	.	.	.	.	.	.	.	16e/JJ	-mi-	.	.
8B\J	.	.	.	8f#/J	.	.	.	.	.	.	.	8f#/	-ne	.	.
8r	.	.	.	16f#/LL	.	.	.	.	.	.	.	8r	.	.	.
.	.	.	.	16B/	.	.	.	.	.	.	.	.	.	.	.
8BB/	.	.	.	16f#/	.	.	.	.	.	.	.	8a\	in	.	.
.	.	.	.	16a/JJ	.	.	.	.	.	.	.	.	.	.	.
=39	=39	=39	=39	=39	=39	=39	=39	=39	=39	=39	=39	=39	=39	=39	=39
8E\L	.	.	2ryy	16g#/LL	.	2ryy	.	2ryy	.	2ryy	.	16g#\LL	no-	2ryy	2ryy
!	!	!	!	!LO:TX:a:t=P:problem: mixed beam	!	!	!	!	!	!	!	!	!	!	!
.	.	.	.	16ee\JJ	.	.	.	.	.	.	.	16ee\JJ	.	.	.
!	!	!	!	!LO:TX:a:t=P:problem:klamra łukowa, kropka	!	!	!	!	!	!	!	!	!	!	!
8A\	.	.	.	24cc#\LL	.	.	.	.	.	.	.	24a\LL	-mi-	.	.
.	.	.	.	24aa\	.	.	.	.	.	.	.	24aa\	.	.	.
.	.	.	.	24ff#\JJ	.	.	.	.	.	.	.	24ff#\JJ	-ne	.	.
8B\	.	.	.	8ee\L	.	.	.	.	.	.	.	8ee\	Do-	.	.
!LO:TX:a:t=P:problem: mixed beam	!	!	!	!	!	!	!	!	!	!	!	!	!	!	!
8BB/J	.	.	.	32gg#\LL	.	.	.	.	.	.	.	8dd#X\	-mi-	.	.
.	.	.	.	(32ff#\	.	.	.	.	.	.	.	.	.	.	.
.	.	.	.	32ee\	.	.	.	.	.	.	.	.	.	.	.
.	.	.	.	32dd#X\JJJ)	.	.	.	.	.	.	.	.	.	.	.
=40	=40	=40	=40	=40	=40	=40	=40	=40	=40	=40	=40	=40	=40	=40	=40
4E\	.	.	2ryy	8ee\L	.	2ryy	.	2ryy	.	2ryy	.	4ee\	-ni	2ryy	2ryy
!	!	!	!	!LO:TX:a:t=P:problem: mixed beam	!	!	!	!	!	!	!	!	!	!	!
.	.	.	.	8g#/J	.	.	.	.	.	.	.	.	.	.	.
8r	.	.	.	16f#/LL	.	.	.	.	.	.	.	8r	.	.	.
.	.	.	.	16B/	.	.	.	.	.	.	.	.	.	.	.
8BB/	.	.	.	16f#/	.	.	.	.	.	.	.	8f#\	qui	.	.
.	.	.	.	16a/JJ	.	.	.	.	.	.	.	.	.	.	.
=41	=41	=41	=41	=41	=41	=41	=41	=41	=41	=41	=41	=41	=41	=41	=41
8E\L	.	.	2ryy	16g#/LL	.	2ryy	.	2ryy	.	2ryy	.	16g#/LL	ve-	2ryy	2ryy
.	.	.	.	16e/J	.	.	.	.	.	.	.	16e/JJ	.	.	.
!LO:TX:a:t=P:problem: mixed beam	!	!	!	!	!	!	!	!	!	!	!	!	!	!	!
8BB/J	.	.	.	8f#/J	.	.	.	.	.	.	.	8f#/	-nit	.	.
8r	.	.	.	16f#/LL	.	.	.	.	.	.	.	8r	.	.	.
.	.	.	.	16B/	.	.	.	.	.	.	.	.	.	.	.
8BB/	.	.	.	16f#/	.	.	.	.	.	.	.	8f#/	in	.	.
.	.	.	.	16a/JJ	.	.	.	.	.	.	.	.	.	.	.
=42	=42	=42	=42	=42	=42	=42	=42	=42	=42	=42	=42	=42	=42	=42	=42
8E\L	.	.	2ryy	16g#/LL	.	2ryy	.	2ryy	.	2ryy	.	16g#/	no-	2ryy	2ryy
.	.	.	.	16e/J	.	.	.	.	.	.	.	16e/	-mi-	.	.
!LO:TX:a:t=P:problem: mixed beam	!	!	!	!	!	!	!	!	!	!	!	!	!	!	!
8BB/J	.	.	.	8f#/J	.	.	.	.	.	.	.	8f#/	-ne	.	.
8r	.	.	.	16f#/LL	.	.	.	.	.	.	.	8r	.	.	.
.	.	.	.	16B/	.	.	.	.	.	.	.	.	.	.	.
8BB/	.	.	.	16f#/	.	.	.	.	.	.	.	8a\	in	.	.
.	.	.	.	16a/JJ	.	.	.	.	.	.	.	.	.	.	.
!	!	!	!	!LO:LB:g=original	!	!	!	!	!	!	!	!	!	!	!
=43	=43	=43	=43	=43	=43	=43	=43	=43	=43	=43	=43	=43	=43	=43	=43
!LO:TX:a:t=P:problem:mixed beam	!	!	!	!	!	!	!	!	!	!	!	!	!	!	!
8E\L	.	.	2ryy	16g#/LL	.	2ryy	.	2ryy	.	2ryy	.	16g#\LL	no-	2ryy	2ryy
!	!	!	!	!LO:TX:a:t=P:problem: mixed beam	!	!	!	!	!	!	!	!	!	!	!
.	.	.	.	16ee\JJ	.	.	.	.	.	.	.	16ee\JJ	.	.	.
!	!	!	!	!LO:TX:a:t=P:problem:klamra łukowa, kropka	!	!	!	!	!	!	!	!	!	!	!
8G#\	.	.	.	24cc#\LL	.	.	.	.	.	.	.	24cc#\LL	-mi-	.	.
.	.	.	.	24aa\	.	.	.	.	.	.	.	24aa\	.	.	.
.	.	.	.	24ff#\JJ	.	.	.	.	.	.	.	24ff#\JJ	-ne	.	.
8B\	.	.	.	8ee\L	.	.	.	.	.	.	.	8ee\	Do-	.	.
8BB/J	.	.	.	8dd#X\J	.	.	.	.	.	.	.	8dd#X\	-mi-	.	.
=44	=44	=44	=44	=44	=44	=44	=44	=44	=44	=44	=44	=44	=44	=44	=44
8E/L	.	.	2ryy	8ee\L	.	2ryy	.	2ryy	.	2ryy	.	4ee\	-ni	2ryy	2ryy
8BB/J	.	.	.	8b\J	.	.	.	.	.	.	.	.	.	.	.
!LO:LB:g=original	!	!	!	!	!	!	!	!	!	!	!	!	!	!	!
8EE/	.	.	.	8e/L	.	.	.	.	.	.	.	4r	.	.	.
8r	.	.	.	(16e/L	.	.	.	.	.	.	.	.	.	.	.
.	.	.	.	16g#/JJ)	.	.	.	.	.	.	.	.	.	.	.
=45	=45	=45	=45	=45	=45	=45	=45	=45	=45	=45	=45	=45	=45	=45	=45
8r	.	.	2ryy	8b\	.	2ryy	.	2ryy	.	2ryy	.	4.b\	Be-	2ryy	2ryy
8E\L	.	.	.	4b\	.	.	.	.	.	.	.	.	.	.	.
8E\	.	.	.	.	.	.	.	.	.	.	.	.	.	.	.
!	!	!	!	!LO:TX:a:t=P:problem:klamra łukowa, kropka	!	!	!	!	!	!	!	!	!	!	!
8BB\J	.	.	.	24cc#\LL	.	.	.	.	.	.	.	(24cc#\LL	.	.	.
.	.	.	.	24b\	.	.	.	.	.	.	.	24b\	-ne-	.	.
.	.	.	.	24a\JJ	.	.	.	.	.	.	.	24a\JJ)	.	.	.
=46	=46	=46	=46	=46	=46	=46	=46	=46	=46	=46	=46	=46	=46	=46	=46
8r	.	.	2ryy	16g#/LL	.	2ryy	.	2ryy	.	2ryy	.	16g#\LL	-di-	2ryy	2ryy
.	.	.	.	16a/J	.	.	.	.	.	.	.	16a\JJ	.	.	.
8E\L	.	.	.	8b/J	.	.	.	.	.	.	.	8b\	-ctus	.	.
8G#\	.	.	.	8r	.	.	.	.	.	.	.	8r	.	.	.
8E\J	.	.	.	24ee\LL	.	.	.	.	.	.	.	(24ee\LL	qui	.	.
.	.	.	.	24dd#X\	.	.	.	.	.	.	.	24dd#X\	.	.	.
.	.	.	.	24ee\JJ	.	.	.	.	.	.	.	24ee\JJ)	.	.	.
=47	=47	=47	=47	=47	=47	=47	=47	=47	=47	=47	=47	=47	=47	=47	=47
8B\	.	.	2ryy	16ff#\LL	.	2ryy	.	2ryy	.	2ryy	.	8ff#\L	ve-	2ryy	2ryy
!	!	!	!	!LO:TX:a:t=P:problem: mixed beam	!	!	!	!	!	!	!	!	!	!	!
.	.	.	.	16a/JJ	.	.	.	.	.	.	.	.	.	.	.
!	!	!	!	!LO:TX:a:t=P:problem:klamra łukowa, kropka	!	!	!	!	!	!	!	!	!	!	!
8r	.	.	.	24a/LL	.	.	.	.	.	.	.	8a\J	.	.	.
.	.	.	.	24g#/	.	.	.	.	.	.	.	.	.	.	.
.	.	.	.	24a/JJ	.	.	.	.	.	.	.	.	.	.	.
!	!	!	!	!	!	!	!	!	!	!	!	!LO:LB:g=original	!	!	!
8r	.	.	.	16B/LL	.	.	.	.	.	.	.	8a\	-nit	.	.
.	.	.	.	16d#X/	.	.	.	.	.	.	.	.	.	.	.
8BB/	.	.	.	16f#/	.	.	.	.	.	.	.	8a\	qui-	.	.
.	.	.	.	16a/JJ	.	.	.	.	.	.	.	.	.	.	.
=48	=48	=48	=48	=48	=48	=48	=48	=48	=48	=48	=48	=48	=48	=48	=48
4E\	.	.	2ryy	16g#/LL	.	2ryy	.	2ryy	.	2ryy	.	(16g#X\LL	-ve-	2ryy	2ryy
.	.	.	.	16a/J	.	.	.	.	.	.	.	16a\JJ)	.	.	.
.	.	.	.	8b/J	.	.	.	.	.	.	.	8b\	-nit	.	.
8G#\L	.	.	.	8r	.	.	.	.	.	.	.	8r	.	.	.
8E\J	.	.	.	24ee\LL	.	.	.	.	.	.	.	8ee\	qui	.	.
.	.	.	.	24dd#X\	.	.	.	.	.	.	.	.	.	.	.
.	.	.	.	24ee\JJ	.	.	.	.	.	.	.	.	.	.	.
=49	=49	=49	=49	=49	=49	=49	=49	=49	=49	=49	=49	=49	=49	=49	=49
8r	.	.	2ryy	16ff#\LL	.	2ryy	.	2ryy	.	2ryy	.	4ff#\	ve-	2ryy	2ryy
!	!	!	!	!LO:TX:a:t=P:problem: mixed beam	!	!	!	!	!	!	!	!	!	!	!
.	.	.	.	16a/JJ	.	.	.	.	.	.	.	.	.	.	.
8BB/L	.	.	.	24a/LL	.	.	.	.	.	.	.	.	.	.	.
.	.	.	.	24g#X/	.	.	.	.	.	.	.	.	.	.	.
.	.	.	.	24a/JJ	.	.	.	.	.	.	.	.	.	.	.
8D#X/	.	.	.	16B/LL	.	.	.	.	.	.	.	8a\	-nit	.	.
.	.	.	.	16d#X/	.	.	.	.	.	.	.	.	.	.	.
8BB/J	.	.	.	16f#/	.	.	.	.	.	.	.	8a\	in	.	.
.	.	.	.	16a/JJ	.	.	.	.	.	.	.	.	.	.	.
!	!	!	!	!LO:LB:g=original	!	!	!	!	!	!	!	!	!	!	!
=50	=50	=50	=50	=50	=50	=50	=50	=50	=50	=50	=50	=50	=50	=50	=50
!	!	!	!	!LO:TX:a:t=P:problem:klamra łukowa, kropka	!	!	!	!	!	!	!	!	!	!	!
8E\L	.	.	2ryy	24g#/LL	.	2ryy	.	2ryy	.	2ryy	.	16g#\	no-	2ryy	2ryy
.	.	.	.	24f#/	.	.	.	.	.	.	.	.	.	.	.
.	.	.	.	.	.	.	.	.	.	.	.	16g#\	-mi-	.	.
.	.	.	.	24g#/JJ	.	.	.	.	.	.	.	.	.	.	.
!	!	!	!	!LO:TX:a:t=P:problem:mixed beam	!	!	!	!	!	!	!	!	!	!	!
(16E\L	3	.	.	16e/LL	.	.	.	.	.	.	.	8b\	-ne	.	.
16d\JJ)	.	.	.	16ff#\	.	.	.	.	.	.	.	.	.	.	.
16c#\LL	3	.	.	16ee\	.	.	.	.	.	.	.	4r	.	.	.
16B\	.	.	.	16dd\	.	.	.	.	.	.	.	.	.	.	.
16A\	3	.	.	16cc#\	.	.	.	.	.	.	.	.	.	.	.
16G#\JJ	.	.	.	16b\JJ	.	.	.	.	.	.	.	.	.	.	.
=51	=51	=51	=51	=51	=51	=51	=51	=51	=51	=51	=51	=51	=51	=51	=51
4A\	.	.	2ryy	16a\LL	.	2ryy	.	2ryy	.	2ryy	.	8aa\L	Be-	2ryy	2ryy
.	.	.	.	16aa\	.	.	.	.	.	.	.	.	.	.	.
.	.	.	.	16gg#\	.	.	.	.	.	.	.	16gg#\L	.	.	.
.	.	.	.	16aa\JJ	.	.	.	.	.	.	.	16aa\JJ	.	.	.
!	!	!	!	!LO:TX:a:t=P:problem:klamra łukowa, kropka do końca taktu	!	!	!	!	!	!	!	!	!	!	!
8c#\L	.	.	.	24ee\LL	.	.	.	.	.	.	.	24ee\LL	.	.	.
.	.	.	.	24ff#\	.	.	.	.	.	.	.	24ff#\	.	.	.
.	.	.	.	24dd\JJ	.	.	.	.	.	.	.	24dd\JJ	.	.	.
!LO:TX:a:t=P:problem: mixed beam	!	!	!	!	!	!	!	!	!	!	!	!	!	!	!
8E/J	.	.	.	24cc#\LL	.	.	.	.	.	.	.	24cc#\LL	-ne-	.	.
.	.	.	.	24dd\	.	.	.	.	.	.	.	24dd\	.	.	.
.	.	.	.	24b\JJ	.	.	.	.	.	.	.	24b\JJ	.	.	.
=52	=52	=52	=52	=52	=52	=52	=52	=52	=52	=52	=52	=52	=52	=52	=52
8AA/L	.	.	2ryy	(16cc#\LL	.	2ryy	.	2ryy	.	2ryy	.	16cc#\LL	-di-	2ryy	2ryy
.	.	.	.	16dd\J)	.	.	.	.	.	.	.	16dd\JJ	.	.	.
8A\	.	.	.	8ee\J	.	.	.	.	.	.	.	8ee\	-ctus	.	.
!LO:TX:a:t=P:problem: mixed beam	!	!	!	!	!	!	!	!	!	!	!	!	!	!	!
8c#\	.	.	.	16e/LL	.	.	.	.	.	.	.	8r	.	.	.
.	.	.	.	16e/	.	.	.	.	.	.	.	.	.	.	.
8A\J	.	.	.	16e/	.	.	.	.	.	.	.	8cc#\	in	.	.
.	.	.	.	16cc#/JJ	.	.	.	.	.	.	.	.	.	.	.
=53	=53	=53	=53	=53	=53	=53	=53	=53	=53	=53	=53	=53	=53	=53	=53
8E\L	6	.	2ryy	16cc#\LL	.	2ryy	.	2ryy	.	2ryy	.	16cc#\LL	no-	2ryy	2ryy
.	.	.	.	[16b\	.	.	.	.	.	.	.	[16b\	.	.	.
8E\J	5	.	.	16b\]	.	.	.	.	.	.	.	16b\]	.	.	.
.	.	.	.	16ff#\JJ	.	.	.	.	.	.	.	16ff#\JJ	.	.	.
8r	.	.	.	16ff#\LL	.	.	.	.	.	.	.	16ff#\LL	-mi-	.	.
.	.	.	.	[16ee\	.	.	.	.	.	.	.	[16ee\	.	.	.
8E\	.	.	.	16ee\]	.	.	.	.	.	.	.	16ee\]	.	.	.
.	.	.	.	16dd\JJ	.	.	.	.	.	.	.	16ddn\JJ	-ne	.	.
=54	=54	=54	=54	=54	=54	=54	=54	=54	=54	=54	=54	=54	=54	=54	=54
8A\L	.	.	2ryy	(16cc#\LL	.	2ryy	.	2ryy	.	2ryy	.	16cc#\	Do-	2ryy	2ryy
.	.	.	.	16b\J)	.	.	.	.	.	.	.	16b\	-mi-	.	.
8A\J	.	.	.	8a\J	.	.	.	.	.	.	.	8a\	-ni	.	.
8r	.	.	.	16b/LL	.	.	.	.	.	.	.	8r	.	.	.
.	.	.	.	16e/	.	.	.	.	.	.	.	.	.	.	.
8E\	.	.	.	16b/	.	.	.	.	.	.	.	8b\	qui	.	.
.	.	.	.	16dd/JJ	.	.	.	.	.	.	.	.	.	.	.
=55	=55	=55	=55	=55	=55	=55	=55	=55	=55	=55	=55	=55	=55	=55	=55
8A\L	.	.	2ryy	8cc#/L	.	2ryy	.	2ryy	.	2ryy	.	16cc#\LL	ve-	2ryy	2ryy
.	.	.	.	.	.	.	.	.	.	.	.	16a\JJ	.	.	.
8E\	.	.	.	(16a/L	.	.	.	.	.	.	.	8b\	-nit	.	.
.	.	.	.	16b/JJ)	.	.	.	.	.	.	.	.	.	.	.
8E\	.	.	.	16b/LL	.	.	.	.	.	.	.	8r	.	.	.
.	.	.	.	16e/	.	.	.	.	.	.	.	.	.	.	.
8A\J	.	.	.	16b/	.	.	.	.	.	.	.	8b\	qui	.	.
.	.	.	.	16dd/JJ	.	.	.	.	.	.	.	.	.	.	.
=56	=56	=56	=56	=56	=56	=56	=56	=56	=56	=56	=56	=56	=56	=56	=56
8A\L	.	.	2ryy	16cc#/LL	.	2ryy	.	2ryy	.	2ryy	.	(16cc#\	ve-	2ryy	2ryy
.	.	.	.	16a/J	.	.	.	.	.	.	.	16a\)	.	.	.
!	!	!	!	!	!	!	!	!	!	!	!	!LO:LB:g=original	!	!	!
8E\	.	.	.	8b/J	.	.	.	.	.	.	.	8b\	-nit	.	.
8E\	.	.	.	16b/LL	.	.	.	.	.	.	.	8r	.	.	.
.	.	.	.	16e/	.	.	.	.	.	.	.	.	.	.	.
8A\J	.	.	.	16b/	.	.	.	.	.	.	.	8dd\	in	.	.
.	.	.	.	16dd/JJ	.	.	.	.	.	.	.	.	.	.	.
=57	=57	=57	=57	=57	=57	=57	=57	=57	=57	=57	=57	=57	=57	=57	=57
!	!	!	!	!LO:TX:a:t=P:problem:klamra łukowa, kropka w całym takci	!	!	!	!	!	!	!	!	!	!	!
8A\L	.	.	2ryy	24cc#\LL	.	2ryy	.	2ryy	.	2ryy	.	24cc#\LL	no-	2ryy	2ryy
.	.	.	.	24b\	.	.	.	.	.	.	.	24b\	.	.	.
.	.	.	.	24cc#\JJ	.	.	.	.	.	.	.	24cc#\JJ	.	.	.
!LO:TX:a:t=P:problem: mixed beam	!	!	!	!	!	!	!	!	!	!	!	!	!	!	!
8C#/	.	.	.	24dd\LL	.	.	.	.	.	.	.	24dd\LL	-mi-	.	.
.	.	.	.	24cc#\	.	.	.	.	.	.	.	24cc#\	-ne	.	.
.	.	.	.	24b\JJ	.	.	.	.	.	.	.	24b\JJ	.	.	.
!	!	!	!	!LO:LB:g=original	!	!	!	!	!	!	!	!	!	!	!
8D/	.	.	.	8a/	.	.	.	.	.	.	.	8a\	Do-	.	.
8E/J	.	.	.	32cc#/LLL	.	.	.	.	.	.	.	8g#\	-mi-	.	.
.	.	.	.	(32b/	.	.	.	.	.	.	.	.	.	.	.
.	.	.	.	32a/)	.	.	.	.	.	.	.	.	.	.	.
.	.	.	.	32g#X/JJJ	.	.	.	.	.	.	.	.	.	.	.
=58	=58	=58	=58	=58	=58	=58	=58	=58	=58	=58	=58	=58	=58	=58	=58
!	!	!	!	!LO:TX:a:t=P:problem:klamra łukowa, kropka w całym takcie	!	!	!	!	!	!	!	!	!	!	!
4A\	.	.	2ryy	24gg#\LL	.	2ryy	.	2ryy	.	2ryy	.	4a\	-ni	2ryy	2ryy
.	.	.	.	24aa\	.	.	.	.	.	.	.	.	.	.	.
.	.	.	.	24ee\JJ	.	.	.	.	.	.	.	.	.	.	.
.	.	.	.	24ee\LL	.	.	.	.	.	.	.	.	.	.	.
.	.	.	.	24ff#\	.	.	.	.	.	.	.	.	.	.	.
.	.	.	.	24dd\JJ	.	.	.	.	.	.	.	.	.	.	.
8A\L	.	p	.	24cc#\LL	.	.	.	.	.	.	.	4r	.	.	.
.	.	.	.	24dd\	.	.	.	.	.	.	.	.	.	.	.
.	.	.	.	24b\JJ	.	.	.	.	.	.	.	.	.	.	.
8E\J	.	.	.	16a/LL	.	.	.	.	.	.	.	.	.	.	.
.	.	.	.	16g#/JJ	.	.	.	.	.	.	.	.	.	.	.
=59	=59	=59	=59	=59	=59	=59	=59	=59	=59	=59	=59	=59||	=59	=59	=59
!	!	!	!	!	!	!	!	!	!	!	!	!LO:N:vis=00	!	!	!
8r	.	.	2ryy	24a\LL	.	2ryy	.	2ryy	.	2ryy	.	0r	.	2ryy	2ryy
.	.	.	.	24b\	.	.	.	.	.	.	.	.	.	.	.
!	!	!	!	!LO:TX:a:t=P:problem:klamra łukowa, kropka	!	!	!	!	!	!	!	!	!	!	!
.	.	.	.	24cc#\JJ	.	.	.	.	.	.	.	.	.	.	.
8A\L	.	.	.	16cc#\LL	.	.	.	.	.	.	.	.	.	.	.
.	.	.	.	16b\JJ	.	.	.	.	.	.	.	.	.	.	.
8c#\	.	.	.	8r	.	.	.	.	.	.	.	.	.	.	.
8A\J	.	.	.	24aa\LL	.	.	.	.	.	.	.	.	.	.	.
.	.	.	.	24gg#\	.	.	.	.	.	.	.	.	.	.	.
.	.	.	.	24aa\JJ	.	.	.	.	.	.	.	.	.	.	.
!LO:LB:g=original	!	!	!	!	!	!	!	!	!	!	!	!	!	!	!
=60	=60	=60	=60	=60	=60	=60	=60	=60	=60	=60	=60	=60	=60	=60	=60
!	!	!	!	!LO:TX:a:t=P:problem:klamra łukowa, kropka w całym takcie	!	!	!	!	!	!	!	!	!	!	!
4E\	.	.	2ryy	24gg#\LL	.	2ryy	.	2ryy	.	2ryy	.	.	.	2ryy	2ryy
.	.	.	.	24bb\	.	.	.	.	.	.	.	.	.	.	.
.	.	.	.	24aa\JJ	.	.	.	.	.	.	.	.	.	.	.
.	.	.	.	24gg#\LL	.	.	.	.	.	.	.	.	.	.	.
.	.	.	.	24ff#\	.	.	.	.	.	.	.	.	.	.	.
.	.	.	.	24ee\JJ	.	.	.	.	.	.	.	.	.	.	.
8E\L	.	.	.	24dd\LL	.	.	.	.	.	.	.	.	.	.	.
.	.	.	.	24cc#\	.	.	.	.	.	.	.	.	.	.	.
.	.	.	.	24b\JJ	.	.	.	.	.	.	.	.	.	.	.
8E\J	.	.	.	24a/LL	.	.	.	.	.	.	.	.	.	.	.
.	.	.	.	24g#X/	.	.	.	.	.	.	.	.	.	.	.
.	.	.	.	24e/JJ	.	.	.	.	.	.	.	.	.	.	.
=61	=61	=61	=61	=61	=61	=61	=61	=61	=61	=61	=61	=61	=61	=61	=61
!	!	!	!	!LO:TX:a:t=P:problem:klamra łukowa, kropka	!	!	!	!	!	!	!	!	!	!	!
8AA/L	.	.	2ryy	24a/LL	.	2ryy	.	2ryy	.	2ryy	.	.	.	2ryy	2ryy
.	.	.	.	24b/	.	.	.	.	.	.	.	.	.	.	.
.	.	.	.	24cc#/JJ	.	.	.	.	.	.	.	.	.	.	.
!LO:TX:a:t=P:problem: mixed beam	!	!	!	!	!	!	!	!	!	!	!	!	!	!	!
8A\	.	.	.	16cc#\LL	.	.	.	.	.	.	.	.	.	.	.
.	.	.	.	16b\JJ	.	.	.	.	.	.	.	.	.	.	.
8c#\	.	.	.	8r	.	.	.	.	.	.	.	.	.	.	.
8A\J	.	.	.	24aa\LL	.	.	.	.	.	.	.	.	.	.	.
.	.	.	.	24gg#\	.	.	.	.	.	.	.	.	.	.	.
.	.	.	.	24aa\JJ	.	.	.	.	.	.	.	.	.	.	.
=62	=62	=62	=62	=62	=62	=62	=62	=62	=62	=62	=62	=62	=62	=62	=62
!	!	!	!	!LO:TX:a:t=P:problem:klamra łukowa, kropka w całym takcie	!	!	!	!	!	!	!	!	!	!	!
4E\	.	.	2ryy	24gg#\LL	.	2ryy	.	2ryy	.	2ryy	.	.	.	2ryy	2ryy
.	.	.	.	24bb\	.	.	.	.	.	.	.	.	.	.	.
.	.	.	.	24aa\JJ	.	.	.	.	.	.	.	.	.	.	.
.	.	.	.	24gg#\LL	.	.	.	.	.	.	.	.	.	.	.
.	.	.	.	24ff#\	.	.	.	.	.	.	.	.	.	.	.
.	.	.	.	24ee\JJ	.	.	.	.	.	.	.	.	.	.	.
8E\L	.	.	.	32dd\LLL	.	.	.	.	.	.	.	.	.	.	.
.	.	.	.	32cc#\	.	.	.	.	.	.	.	.	.	.	.
.	.	.	.	32b\	.	.	.	.	.	.	.	.	.	.	.
.	.	.	.	32a\JJJ	.	.	.	.	.	.	.	.	.	.	.
!	!	!	!	!LO:LB:g=original	!	!	!	!	!	!	!	!	!	!	!
8E\J	.	.	.	32g#/LLL	.	.	.	.	.	.	.	.	.	.	.
.	.	.	.	32f#/	.	.	.	.	.	.	.	.	.	.	.
.	.	.	.	32e/	.	.	.	.	.	.	.	.	.	.	.
.	.	.	.	32d/JJJ	.	.	.	.	.	.	.	.	.	.	.
=63	=63	=63	=63	=63	=63	=63	=63	=63	=63	=63	=63	=63	=63	=63	=63
!	!	!	!	!	!	!	!	!	!	!	!	!LO:N:vis=00	!	!	!
8A\L	.	.	2ryy	8d/L	.	2ryy	.	2ryy	.	2ryy	.	0r	.	2ryy	2ryy
!LO:TX:a:t=P:problem: mixed beam	!	!	!	!	!	!	!	!	!	!	!	!	!	!	!
8E\	.	.	.	8c#/J	.	.	.	.	.	.	.	.	.	.	.
8AA/J	.	.	.	8r	.	.	.	.	.	.	.	.	.	.	.
8r	.	.	.	24a\LL	.	.	.	.	.	.	.	.	.	.	.
.	.	.	.	24cc#\	.	.	.	.	.	.	.	.	.	.	.
.	.	.	.	24ee\JJ	.	.	.	.	.	.	.	.	.	.	.
=64	=64	=64	=64	=64	=64	=64	=64	=64	=64	=64	=64	=64	=64	=64	=64
4E\	.	.	2ryy	24dd\LL	.	2ryy	.	2ryy	.	2ryy	.	.	.	2ryy	2ryy
.	.	.	.	24cc#\	.	.	.	.	.	.	.	.	.	.	.
.	.	.	.	24dd\JJ	.	.	.	.	.	.	.	.	.	.	.
.	.	.	.	16e/LL	.	.	.	.	.	.	.	.	.	.	.
.	.	.	.	16e/JJ	.	.	.	.	.	.	.	.	.	.	.
8E\L	.	.	.	16e/LL	.	.	.	.	.	.	.	.	.	.	.
.	.	.	.	16e/	.	.	.	.	.	.	.	.	.	.	.
8E\J	.	.	.	(16b/	.	.	.	.	.	.	.	.	.	.	.
.	.	.	.	16dd/JJ)	.	.	.	.	.	.	.	.	.	.	.
=65	=65	=65	=65	=65	=65	=65	=65	=65	=65	=65	=65	=65	=65	=65	=65
8A\L	.	.	2ryy	24cc#\LL	.	2ryy	.	2ryy	.	2ryy	.	.	.	2ryy	2ryy
.	.	.	.	24b\	.	.	.	.	.	.	.	.	.	.	.
.	.	.	.	24cc#\JJ	.	.	.	.	.	.	.	.	.	.	.
!LO:TX:a:t=P:problem: mixed beam	!	!	!	!	!	!	!	!	!	!	!	!	!	!	!
8AA/J	.	.	.	16a/LL	.	.	.	.	.	.	.	.	.	.	.
.	.	.	.	16e/JJ	.	.	.	.	.	.	.	.	.	.	.
8r	.	.	.	16e/LL	.	.	.	.	.	.	.	.	.	.	.
.	.	.	.	16e/	.	.	.	.	.	.	.	.	.	.	.
8G#\	6	.	.	16cc#/	.	.	.	.	.	.	.	.	.	.	.
.	.	.	.	16ee/JJ	.	.	.	.	.	.	.	.	.	.	.
=66	=66	=66	=66	=66	=66	=66	=66	=66	=66	=66	=66	=66	=66	=66	=66
!	!	!	!	!LO:TX:a:t=P:problem:klamra łukowa, kropka	!	!	!	!	!	!	!	!	!	!	!
4E\	.	.	2ryy	24dd\LL	.	2ryy	.	2ryy	.	2ryy	.	.	.	2ryy	2ryy
.	.	.	.	24cc#\	.	.	.	.	.	.	.	.	.	.	.
.	.	.	.	24dd\JJ	.	.	.	.	.	.	.	.	.	.	.
.	.	.	.	16b/LL	.	.	.	.	.	.	.	.	.	.	.
.	.	.	.	16e/JJ	.	.	.	.	.	.	.	.	.	.	.
8E\L	.	.	.	16e/LL	.	.	.	.	.	.	.	.	.	.	.
.	.	.	.	16e/	.	.	.	.	.	.	.	.	.	.	.
8E\J	.	.	.	16b/	.	.	.	.	.	.	.	.	.	.	.
.	.	.	.	16dd/JJ	.	.	.	.	.	.	.	.	.	.	.
=67	=67	=67	=67	=67	=67	=67	=67	=67	=67	=67	=67	=67	=67	=67	=67
!	!	!	!	!LO:TX:a:t=P:problem:klamra łukowa, kropka	!	!	!	!	!	!	!	!LO:N:vis=00	!	!	!
4A\	.	.	2ryy	24cc#\LL	.	2ryy	.	2ryy	.	2ryy	.	0r	.	2ryy	2ryy
.	.	.	.	24b\	.	.	.	.	.	.	.	.	.	.	.
.	.	.	.	24cc#\JJ	.	.	.	.	.	.	.	.	.	.	.
.	.	.	.	8a/	.	.	.	.	.	.	.	.	.	.	.
8c#\L	.	.	.	8r	.	.	.	.	.	.	.	.	.	.	.
8A\J	.	.	.	24ee\LL	.	.	.	.	.	.	.	.	.	.	.
.	.	.	.	24ee\	.	.	.	.	.	.	.	.	.	.	.
.	.	.	.	24aa\JJ	.	.	.	.	.	.	.	.	.	.	.
=68	=68	=68	=68	=68	=68	=68	=68	=68	=68	=68	=68	=68	=68	=68	=68
!	!	!	!	!LO:TX:a:t=P:problem:klamra łukowa, kropka w całym takcie	!	!	!	!	!	!	!	!	!	!	!
4D\	.	.	2ryy	24ff#\LL	.	2ryy	.	2ryy	.	2ryy	.	.	.	2ryy	2ryy
.	.	.	.	24ee\	.	.	.	.	.	.	.	.	.	.	.
.	.	.	.	24ff#\JJ	.	.	.	.	.	.	.	.	.	.	.
!	!	!	!	!LO:TX:a:t=P:problem:mixed beam	!	!	!	!	!	!	!	!	!	!	!
.	.	.	.	16d/LL	.	.	.	.	.	.	.	.	.	.	.
.	.	.	.	16ff#\JJ	.	.	.	.	.	.	.	.	.	.	.
4E\	.	.	.	24gg#\LL	.	.	.	.	.	.	.	.	.	.	.
.	.	.	.	24ff#\	.	.	.	.	.	.	.	.	.	.	.
.	.	.	.	24gg#\JJ	.	.	.	.	.	.	.	.	.	.	.
!	!	!	!	!LO:TX:a:t=P:problem:mixed beam	!	!	!	!	!	!	!	!	!	!	!
.	.	.	.	16e/LL	.	.	.	.	.	.	.	.	.	.	.
.	.	.	.	16gg#\JJ	.	.	.	.	.	.	.	.	.	.	.
!	!	!	!	!LO:LB:g=original	!	!	!	!	!	!	!	!	!	!	!
=69	=69	=69	=69	=69	=69	=69	=69	=69	=69	=69	=69	=69	=69	=69	=69
!	!	!	!	!LO:TX:a:t=P:problem:klamra łukowa, kropka do końca Benedictus	!	!	!	!	!	!	!	!	!	!	!
4F#\	.	.	2ryy	24aa\LL	.	2ryy	.	2ryy	.	2ryy	.	.	.	2ryy	2ryy
.	.	.	.	24gg#\	.	.	.	.	.	.	.	.	.	.	.
.	.	.	.	24aa\JJ	.	.	.	.	.	.	.	.	.	.	.
.	.	.	.	16f#/LL	.	.	.	.	.	.	.	.	.	.	.
!	!	!	!	!LO:TX:a:t=P:problem: mixed beam	!	!	!	!	!	!	!	!	!	!	!
.	.	.	.	16aa\JJ	.	.	.	.	.	.	.	.	.	.	.
4G#X\	.	.	.	24bb\LL	.	.	.	.	.	.	.	.	.	.	.
.	.	.	.	24aa\	.	.	.	.	.	.	.	.	.	.	.
.	.	.	.	24bb\JJ	.	.	.	.	.	.	.	.	.	.	.
!	!	!	!	!LO:TX:a:t=P:problem:mixed beam	!	!	!	!	!	!	!	!	!	!	!
.	.	.	.	16g#/LL	.	.	.	.	.	.	.	.	.	.	.
.	.	.	.	16bb\JJ	.	.	.	.	.	.	.	.	.	.	.
=70	=70	=70	=70	=70	=70	=70	=70	=70	=70	=70	=70	=70	=70	=70	=70
8A\	.	.	2ryy	24ccc#\LL	.	2ryy	.	2ryy	.	2ryy	.	.	.	2ryy	2ryy
.	.	.	.	24bb\	.	.	.	.	.	.	.	.	.	.	.
.	.	.	.	24aa\JJ	.	.	.	.	.	.	.	.	.	.	.
8r	.	.	.	24gg#\LL	.	.	.	.	.	.	.	.	.	.	.
.	.	.	.	24ff#\	.	.	.	.	.	.	.	.	.	.	.
.	.	.	.	24ee\JJ	.	.	.	.	.	.	.	.	.	.	.
8B\L	.	.	.	8ee\L	.	.	.	.	.	.	.	.	.	.	.
!LO:TX:a:t=P:problem: mixed beam	!	!	!	!	!	!	!	!	!	!	!	!	!	!	!
8BB/J	.	.	.	8dd#X\J	.	.	.	.	.	.	.	.	.	.	.
=71	=71	=71	=71	=71	=71	=71	=71	=71	=71	=71	=71	=71	=71	=71	=71
!	!	!	!	!	!	!	!	!	!	!	!	!LO:N:vis=00	!	!	!
4E\	7 3	.	2ryy	24ff#\LL	.	2ryy	.	2ryy	.	2ryy	.	1.r	.	2ryy	2ryy
.	.	.	.	24ee\	.	.	.	.	.	.	.	.	.	.	.
.	.	.	.	24ddn\JJ	.	.	.	.	.	.	.	.	.	.	.
.	.	.	.	24dd\LL	.	.	.	.	.	.	.	.	.	.	.
.	.	.	.	24cc#\	.	.	.	.	.	.	.	.	.	.	.
.	.	.	.	24b\JJ	.	.	.	.	.	.	.	.	.	.	.
8E\L	.	.	.	8b\L	.	.	.	.	.	.	.	.	.	.	.
8E\J	.	.	.	8dd\J	.	.	.	.	.	.	.	.	.	.	.
=72	=72	=72	=72	=72	=72	=72	=72	=72	=72	=72	=72	=72	=72	=72	=72
8A\L	.	.	2ryy	24cc#\LL	.	2ryy	.	2ryy	.	2ryy	.	.	.	2ryy	2ryy
.	.	.	.	24dd\	.	.	.	.	.	.	.	.	.	.	.
.	.	.	.	24ee\JJ	.	.	.	.	.	.	.	.	.	.	.
!LO:TX:a:t=P:problem: mixed beam	!	!	!	!	!	!	!	!	!	!	!	!	!	!	!
8C#/	.	.	.	24ff#\LL	.	.	.	.	.	.	.	.	.	.	.
.	.	.	.	24gg#\	.	.	.	.	.	.	.	.	.	.	.
.	.	.	.	24aa\JJ	.	.	.	.	.	.	.	.	.	.	.
8D/	.	.	.	8cc#\L	.	.	.	.	.	.	.	.	.	.	.
8E/J	.	.	.	8b\J	.	.	.	.	.	.	.	.	.	.	.
=73	=73	=73	=73	=73	=73	=73	=73	=73	=73	=73	=73	=73	=73	=73	=73
8A\L	.	.	2ryy	8a\L	.	2ryy	.	2ryy	.	2ryy	.	.	.	2ryy	2ryy
!LO:TX:a:t=P:problem: mixed beam	!	!	!	!	!	!	!	!	!	!	!	!LO:TX:a:t=P:problem:brakuje 1 pustego taktu	!	!	!
8AA/J	.	.	.	16ee\L	.	.	.	.	.	.	.	.	.	.	.
.	.	.	.	16cc#\JJ	.	.	.	.	.	.	.	.	.	.	.
4AA/	.	.	.	4a/	.	.	.	.	.	.	.	.	.	.	.
*clefC1	*	*	*	*	*	*	*	*	*	*	*	*	*	*	*
!	!	!	!LO:LB:g=original	!LO:LB:g=original	!	!	!	!	!	!	!	!	!	!	!
=74||	=74||	=74||	=74||	=74||	=74||	=74||	=74||	=74||	=74||	=74||	=74||	=74||	=74||	=74||	=74||
*k[f#c#]	*	*	*k[f#c#]	*k[f#c#]	*	*k[f#c#]	*	*k[f#c#]	*	*k[f#c#]	*	*k[f#c#]	*	*k[f#c#]	*k[f#c#]
*M4/4	*	*	*M4/4	*M4/4	*	*M4/4	*	*M4/4	*	*M4/4	*	*M4/4	*	*M4/4	*M4/4
*met(c)	*	*	*met(c)	*met(c)	*	*met(c)	*	*met(c)	*	*met(c)	*	*met(c)	*	*met(c)	*met(c)
*2\right	*	*	*	*	*	*	*	*	*	*2\right	*	*	*	*	*
!	!	!	!LO:TX:a:t=P:problem:metrum C z kropką	!	!	!	!	!LO:TX:a:t=P:problem:metrum C z kropką	!	!LO:TX:a:t=P:problem:metrum C z kropką	!	!LO:TX:a:t=P:problem:metrum C z kropką	!	!LO:TX:a:t=P:problem:metrum C z kropką	!LO:TX:a:t=P:problem:metrum C z kropką
!LO:TX:b:i:t=Osanna	!	!	!LO:TX:b:i:t=Osanna	!LO:TX:a:t=Allo	!	!	!	!	!	!	!	!	!	!LO:TX:b:i:t=Osanna	!LO:TX:b:i:t=Osanna
!LO:TX:a:t=P:problem: cauda z prawej strony	!	!	!LO:TX:a:t=allo	!LO:TX:b:i:t=Osanna	!	!LO:TX:a:t=allo	!	!LO:TX:a:t=allo	!	!LO:TX:a:t=Solo	!	!	!	!LO:TX:a:t=allo	!LO:TX:a:t=allo
2a\	.	.	2a/	0r	.	00r	.	00r	.	2a\	O-	0r	.	00r	00r
4f#\	.	.	4f#/	.	.	.	.	.	.	4f#\	-san-	.	.	.	.
4b\	.	.	4b/	.	.	.	.	.	.	4b\	-na	.	.	.	.
=75	=75	=75	=75	=75	=75	=75	=75	=75	=75	=75	=75	=75	=75	=75	=75
4.g\	.	.	4.g/	.	.	.	.	.	.	4.g\	in	.	.	.	.
8a\	.	.	8a/	.	.	.	.	.	.	8a\	ex-	.	.	.	.
4f#/	.	.	4f#/	.	.	.	.	.	.	4f#\	-cel-	.	.	.	.
4d/	.	.	4d/	.	.	.	.	.	.	4d\	-sis	.	.	.	.
=76	=76	=76	=76	=76	=76	=76	=76	=76	=76	=76	=76	=76	=76	=76	=76
*^	*	*	*	*	*	*	*	*	*	*	*	*	*	*	*
*	*	*	*	*	*2\right	*	*	*	*	*	*	*	*2\right	*	*	*
2ee/	4a\	.	.	4a\	2ee\	.	.	.	.	.	(4a\	O	2ee\	O-	.	.
.	4cc#\	.	.	4cc#\	.	.	.	.	.	.	4cc#\)	.	.	.	.	.
4cc#/	4a\	.	.	4a/	4cc#\	.	.	.	.	.	4a\	san-	4cc#\	-san-	.	.
4ee/	4cc#\	.	.	4cc#\	4ee\	.	.	.	.	.	4cc#\	-na	4ee\	-na	.	.
=77	=77	=77	=77	=77	=77	=77	=77	=77	=77	=77	=77	=77	=77	=77	=77	=77
4dd/	8g#X\L	.	.	8g#X/L	4dd\	.	.	.	.	.	(8g#X\L	in	4dd\	in	.	.
.	8e\J	.	.	8e/J	.	.	.	.	.	.	8e\J)	.	.	.	.	.
4cc#/	4a\	.	.	4a/	4cc#\	.	.	.	.	.	4a\	ex-	4cc#\	ex-	.	.
2b/	4gn\	.	.	4gn/	2b\	.	.	.	.	.	4g#\	-cel-	2b\	-cel-	.	.
.	4e\	.	.	4e/	.	.	.	.	.	.	4e\	-sis	.	.	.	.
*v	*v	*	*	*	*	*	*	*	*	*	*	*	*	*	*	*
=78	=78	=78	=78	=78	=78	=78	=78	=78	=78	=78	=78	=78	=78	=78	=78
4a\	.	.	4a/	4a/	.	4r	.	4r	.	4a\	in	4a\	-sis	4r	4r
*clefF4	*	*	*	*	*	*	*	*	*	*	*	*	*	*	*
4d\	.	.	4d/ 4a 4ff#	4d/ 4a 4ff#	f	4d\	O-	4d\	O-	4a\	ex-	4ff#\	O-	4dd\	4ff#\
4A\	.	.	16cc#\LL	16ee\LL	.	4A\	-san-	4c#\	-san-	4a\	-cel-	4ee\	-san-	4a\	4ee\
.	.	.	16a\	16a\	.	.	.	.	.	.	.	.	.	.	.
.	.	.	16ca#\	16cc#\	.	.	.	.	.	.	.	.	.	.	.
.	.	.	16ee\JJ	16ee\JJ	.	.	.	.	.	.	.	.	.	.	.
4A\	.	.	4ee\	4gg\	.	4A\	-na	4e\	-na	4a\	-sis	4gg\	-na	4dd\	4gg\
=79	=79	=79	=79	=79	=79	=79	=79	=79	=79	=79	=79	=79	=79	=79	=79
4d\	.	.	16dd\LL	16ff#\LL	.	4d\	in	4d\	in	4a\	O-	4ff#\	in	4dd\	4ff#\
.	.	.	16a\	16dd\	.	.	.	.	.	.	.	.	.	.	.
.	.	.	16dd\	16ff#\	.	.	.	.	.	.	.	.	.	.	.
.	.	.	16ff#\JJ	16aa\JJ	.	.	.	.	.	.	.	.	.	.	.
4D\	.	.	8ff#\L	8ddd\L	.	4A\	ex-	4d\	ex-	4a\	-san-	4ff#\	ex-	4dd\	4ff#\
.	.	.	8dd\J	8ff#\J	.	.	.	.	.	.	.	.	.	.	.
*	*	*	*	*	*	*2\right	*	*2\right	*	*	*	*	*	*	*
4A\	.	.	16cc#\LL	16ee\LL	.	2A\	-cel-	2e\	-cel-	2a\	-na	2gg\	-cel-	4a\	4ee\
.	.	.	16a\	16a\	.	.	.	.	.	.	.	.	.	.	.
.	.	.	16cc#\	16cc#\	.	.	.	.	.	.	.	.	.	.	.
.	.	.	16ee\JJ	16ee\JJ	.	.	.	.	.	.	.	.	.	.	.
4AA/	.	.	4ee\	4gg\	.	.	.	.	.	.	.	.	.	4ff#\	4gg\
!	!	!	!	!	!	!	!	!	!	!	!	!LO:LB:g=original	!	!	!
=80	=80	=80	=80	=80	=80	=80	=80	=80	=80	=80	=80	=80	=80	=80	=80
4D\	.	.	8ee\L	4d/ 4a 4ff#	.	4D\	-sis	4d\	-sis	4a\	in	4ff#\	-sis	4dd\	4ff#\
.	.	.	8dd\J	.	.	.	.	.	.	.	.	.	.	.	.
*clefC3	*	*	*	*	*	*	*	*	*	*	*	*	*	*	*
4a\	.	.	4a/	4r	.	4r	.	4r	.	4a\	ex-	4r	.	4r	4r
4f#\	.	.	4f#/	2r	.	2r	.	2r	.	4f#\	-cel-	2r	.	2r	2r
4b\	.	.	4b\	.	.	.	.	.	.	4b\	-sis	.	.	.	.
=81	=81	=81	=81	=81	=81	=81	=81	=81	=81	=81	=81	=81	=81	=81	=81
!	!	!	!	!	!	!	!	!	!	!	!	!LO:TX:a:t=1	!	!LO:TX:a:t=1	!LO:TX:a:t=1
!	!	!	!	!	!	!	!	!	!	!	!	!LO:TX:a:t=P:problem:fermata nad 1	!	!LO:TX:a:t=P:problem:fermata nad 1	!LO:TX:a:t=P:problem:fermata nad 1
*	*	*	*	*	*	*	*	*	*	*	*ij	*	*	*	*
4.g\	.	.	4.g/	1r	.	1r	.	1r	.	4.g\	in	1r	.	1r	1r
8a\	.	.	8a/	.	.	.	.	.	.	8a\	ex-	.	.	.	.
4f#\	.	.	4f#/	.	.	.	.	.	.	4f#\	-cel-	.	.	.	.
4d\	.	.	4d/	.	.	.	.	.	.	4d\	-sis	.	.	.	.
*clefF4	*	*	*	*	*	*	*	*	*	*	*Xij	*	*	*	*
!	!	!	!LO:LB:g=original	!	!	!	!	!	!	!	!	!	!	!	!
=82	=82	=82	=82	=82	=82	=82	=82	=82	=82	=82	=82	=82	=82	=82	=82
4D\	.	.	8f#/L	8dd\L	.	4D\	O-	4A\	O-	4f#\	O-	4dd\	O-	4f#/	4dd\
.	.	.	(16a/L	(16ff#\L	.	.	.	.	.	.	.	.	.	.	.
.	.	.	16g/JJ)	16ee\JJ)	.	.	.	.	.	.	.	.	.	.	.
4r	.	.	8f#/L	8dd\L	.	4r	.	4r	.	4r	.	4r	.	4f#/	4dd\
.	.	.	8f#/J	8dd\J	.	.	.	.	.	.	.	.	.	.	.
8E\L	.	.	8f#/L	8dd\L	.	8D\	-san-	8A\	-san-	8f#\L	-san-	8dd\	-san-	4f#/	4dd\
8D\J	.	.	(16a/L	(16ff#\L	.	8D\	-na	8A\	-na	8f#\J	-na	8dd\	-na	.	.
.	.	.	16g/JJ)	16ee\JJ)	.	.	.	.	.	.	.	.	.	.	.
4r	.	.	8f#/L	8dd\L	.	4r	.	4r	.	4r	.	4r	.	4f#/	4dd\
.	.	.	8f#/J	8dd\J	.	.	.	.	.	.	.	.	.	.	.
!	!	!	!	!LO:LB:g=original	!	!	!	!	!	!	!	!	!	!	!
=83	=83	=83	=83	=83	=83	=83	=83	=83	=83	=83	=83	=83	=83	=83	=83
4A\	.	.	8cc#\L	8ee\L	.	4A\	O-	4c#\	O-	4a\	O-	4ee\	O-	4a/	4ee\
.	.	.	(16ee\L	16gg\L	.	.	.	.	.	.	.	.	.	.	.
.	.	.	16dd\JJ)	16ff#\JJ	.	.	.	.	.	.	.	.	.	.	.
4r	.	.	8cc#\L	8ee\L	.	4r	.	4r	.	4r	.	4r	.	4a/	4ee\
.	.	.	8cc#\J	8ee\J	.	.	.	.	.	.	.	.	.	.	.
!	!	!	!	!	!	!	!	!	!	!LO:LB:g=original	!	!	!	!	!
8A\L	.	.	8cc#\L	8ee\L	.	8A\	-san-	8c#\	-san-	8a\	-san-	8ee\	-san-	4a/	4ee\
8A\J	.	.	(16ee\L	16gg\L	.	8A\	-na	8c#\	-na	8a\	-na	8ee\	-na	.	.
.	.	.	16dd\JJ)	16ff#\JJ	.	.	.	.	.	.	.	.	.	.	.
4r	.	.	8cc#\L	8ee\L	.	4r	.	4r	.	4r	.	4r	.	4a/	4ee\
.	.	.	8cc#\J	8ee\J	.	.	.	.	.	.	.	.	.	.	.
=84	=84	=84	=84	=84	=84	=84	=84	=84	=84	=84	=84	=84	=84	=84	=84
4D\	.	.	8dd\L	8ff#\L	.	4D\	O-	4d\	O-	4a\	O-	4ee\	O-	4dd\	4ff#\
.	.	.	(16ff#\L	16aa\L	.	.	.	.	.	.	.	.	.	.	.
.	.	.	16ee\JJ)	16gg\JJ	.	.	.	.	.	.	.	.	.	.	.
4r	.	.	8dd\L	8ff#\L	.	4r	.	4r	.	4r	.	4r	.	4dd\	4ff#\
.	.	.	8dd\J	8ff#\J	.	.	.	.	.	.	.	.	.	.	.
8D\L	.	.	8dd\L	8ff#\L	.	8D\	-san-	8d\	-san-	8a\	-san-	8ff#\	-san-	4dd\	4ff#\
8D\J	.	.	16ff#\L	16aa\L	.	8D\	-na	8d\	-na	8a\	-na	8ff#\	-na	.	.
.	.	.	16ee\JJ	16gg\JJ	.	.	.	.	.	.	.	.	.	.	.
4r	.	.	8dd\L	8ff#\L	.	4r	.	4r	.	4r	.	4r	.	8dd\L	8ff#\L
.	.	.	8dd\J	8ff#\J	.	.	.	.	.	.	.	.	.	8dd\J	8ff#\J
!LO:LB:g=original	!	!	!	!	!	!LO:LB:g=original	!	!LO:LB:g=original	!	!	!	!	!	!	!
=85	=85	=85	=85	=85	=85	=85	=85	=85	=85	=85	=85	=85	=85	=85	=85
*	*	*	*tremolo	*	*	*	*	*	*	*	*	*	*	*	*
4d\	.	.	16a\L	4ff#\	.	4d\	In	4d\	in	4a\	in	4ee\	in	4dd\	4ff#\
.	.	.	16a\	.	.	.	.	.	.	.	.	.	.	.	.
.	.	.	16a\	.	.	.	.	.	.	.	.	.	.	.	.
.	.	.	16a\J	.	.	.	.	.	.	.	.	.	.	.	.
4D\	.	.	16ff#\L	4ddd\	.	4D\	ex-	4d\	ex-	4a\	ex-	4ee\	ex-	4dd\	4ff#\
.	.	.	16ff#\	.	.	.	.	.	.	.	.	.	.	.	.
.	.	.	16ff#\	.	.	.	.	.	.	.	.	.	.	.	.
.	.	.	16ff#\J	.	.	.	.	.	.	.	.	.	.	.	.
!	!	!	!	!	!	!	!	!	!	!LO:TX:a:t=P:problem: cauda z prawej strony	!	!	!	!	!
4A\	.	.	16a\L	4ee\	.	2A\	-cel-	2c#\	-cel-	2a\	-cel-	2ee\	-cel-	4a/	4ee\
.	.	.	16a\	.	.	.	.	.	.	.	.	.	.	.	.
.	.	.	16a\	.	.	.	.	.	.	.	.	.	.	.	.
.	.	.	16a\J	.	.	.	.	.	.	.	.	.	.	.	.
4AA/	.	.	16ee\L	4cc#\	.	.	.	.	.	.	.	.	.	4a/	4ee\
.	.	.	16ee\	.	.	.	.	.	.	.	.	.	.	.	.
.	.	.	16ee\	.	.	.	.	.	.	.	.	.	.	.	.
.	.	.	16ee\J	.	.	.	.	.	.	.	.	.	.	.	.
!	!	!	!	!	!	!	!	!	!	!	!	!	!	!LO:LB:g=original	!
*	*	*	*Xtremolo	*	*	*	*	*	*	*	*	*	*	*	*
=86	=86	=86	=86	=86	=86	=86	=86	=86	=86	=86	=86	=86	=86	=86	=86
4D\	.	.	4d/ 4a 4ff#	4ddd\	.	4D\	-sis	4d\	-sis	4a\	-sis	4ee\	-sis	4dd\	4ff#;\
4r	.	.	4r	4r	.	4r	.	4r	.	4r	.	4r	.	4r	4r
2r	.	.	2r	2r	.	2r	.	2r	.	2r	.	2r	.	2r	2r
=||	=||	=||	=||	=||	=||	=||	=||	=||	=||	=||	=||	=||	=||	=||	=||
*-	*-	*-	*-	*-	*-	*-	*-	*-	*-	*-	*-	*-	*-	*-	*-
!!!system-decoration: [(g1)][(g2)][(g3)][(g4)]
!!!RDF**dynam: f = for.
!!!RDF**dynam: p = pia
!!!ENC:Anastazja Marusiak
!!!END:2020-05-30
!!!ENC:Anna Matuszewska
!!!END:2020-12-15
